; generated by PrusaSlicer 2.5.1+win64 on 2023-06-07 at 06:02:27 UTC


;
;

;
;
; 

; external perimeters extrusion width = 0.45mm
; perimeters extrusion width = 0.45mm
; infill extrusion width = 0.45mm
; solid infill extrusion width = 0.45mm
; top infill extrusion width = 0.40mm
; first layer extrusion width = 0.42mm

; external perimeters extrusion width = 0.45mm
; perimeters extrusion width = 0.45mm
; infill extrusion width = 0.45mm
; solid infill extrusion width = 0.45mm
; top infill extrusion width = 0.40mm
; first layer extrusion width = 0.42mm

; external perimeters extrusion width = 0.45mm
; perimeters extrusion width = 0.45mm
; infill extrusion width = 0.45mm
; solid infill extrusion width = 0.45mm
; top infill extrusion width = 0.40mm
; first layer extrusion width = 0.42mm

M73 P0 R145
M201 X2500 Y2500 Z400 E5000 ; sets maximum accelerations, mm/sec^2
M203 X180 Y180 Z12 E80 ; sets maximum feedrates, mm / sec
M204 P2000 R1250 T2500 ; sets acceleration (P, T) and retract acceleration (R), mm/sec^2
M205 X8.00 Y8.00 Z2.00 E10.00 ; sets the jerk limits, mm/sec
M205 S0 T0 ; sets the minimum extruding and travel feed rate, mm/sec
M107
;TYPE:Custom
M862.3 P "MINI" ; printer model check
G90 ; use absolute coordinates
M83 ; extruder relative mode
M104 S170 ; set extruder temp for bed leveling
M140 S60 ; set bed temp
M109 R170 ; wait for bed leveling temp
M190 S60 ; wait for bed temp
M204 T1250 ; set travel acceleration
G28 ; home all without mesh bed level
G29 ; mesh bed leveling 
M204 T2500 ; restore travel acceleration
M104 S215 ; set extruder temp
G92 E0
G1 Y-2 X179 F2400
G1 Z3 F720
M109 S215 ; wait for extruder temp

; intro line
G1 X170 F1000
G1 Z0.2 F720
G1 X110 E8 F900
G1 X40 E10 F700
G92 E0

M221 S95 ; set flow
G21 ; set units to millimeters
G90 ; use absolute coordinates
M83 ; use relative distances for extrusion
M900 K0.2 ; Filament gcode LA 1.5
; ; Filament gcode LA 1.0
M107
;LAYER_CHANGE
;Z:0.2
;HEIGHT:0.2
;BEFORE_LAYER_CHANGE
G92 E0.0
;0.2


G1 E-3.2 F4200
G1 Z.2 F720
;AFTER_LAYER_CHANGE
;0.2
G1 Z.4
G1 X3.463 Y7.889 F9000
G1 Z.2 F720
G1 E3.2 F2400
M204 P600
;TYPE:Skirt/Brim
;WIDTH:0.42
G1 F1200
G1 X4.277 Y7.699 E.02618
G1 X110.864 Y2.013 E3.34674
G1 X176.191 Y2.01 E2.04827
G1 X177.498 Y2.401 E.04278
G1 X178.374 Y3.447 E.04278
G1 X178.568 Y4.387 E.03008
G1 X178.568 Y119.387 E3.60574
G1 X178.176 Y120.694 E.04278
G1 X177.359 Y121.457 E.03505
G1 X75.566 Y178.913 E3.66497
G1 X74.236 Y179.214 E.04278
G1 X72.984 Y178.754 E.0418
G1 X2.99 Y126.984 E2.72969
G1 X2.172 Y125.892 E.04278
M73 P0 R144
G1 X2.026 Y125.073 E.02608
G1 X2.026 Y10.073 E3.60574
G1 X2.418 Y8.766 E.04278
G1 X3.417 Y7.928 E.0409
M204 P1000
; printing object Board Holder.STL id:2 copy 0
G1 E-2.24 F4200
;WIPE_START
G1 F7200
G1 X4.277 Y7.699 E-.49268
G1 X5.032 Y7.659 E-.41932
;WIPE_END
G1 E-.048 F4200
G1 Z.4 F720
G1 X175.104 Y5.474 F9000
G1 Z.2 F720
G1 E3.2 F2400
M204 P600
;TYPE:Perimeter
;WIDTH:0.419999
G1 F1200
G1 X175.104 Y118.3 E3.53757
G1 X112.078 Y118.3 E1.97613
G1 X112.078 Y5.474 E3.53757
G1 X175.044 Y5.474 E1.97425
M204 P1000
G1 X175.481 Y5.097 F9000
M204 P600
;TYPE:External perimeter
G1 F1200
G1 X175.481 Y118.677 E3.56122
G1 X111.701 Y118.677 E1.99977
G1 X111.701 Y5.097 E3.56122
G1 X175.421 Y5.097 E1.99789
M204 P1000
G1 X175.413 Y5.491 F9000
G1 E-2.24 F4200
;WIPE_START
G1 F7200
G1 X175.422 Y6.742 E-.912
;WIPE_END
G1 E-.048 F4200
G1 Z.4 F720
G1 X156.423 Y11.209 F9000
G1 Z.2 F720
G1 E3.2 F2400
M204 P600
;TYPE:Perimeter
G1 F1200
G1 X156.11 Y10.762 E.01709
G1 X155.909 Y10.31 E.0155
G1 X155.79 Y9.83 E.0155
G1 X155.755 Y9.337 E.0155
G1 X155.807 Y8.846 E.0155
G1 X155.943 Y8.37 E.0155
G1 X156.16 Y7.926 E.0155
G1 X156.45 Y7.526 E.0155
G1 X156.806 Y7.183 E.0155
G1 X157.216 Y6.906 E.0155
G1 X157.667 Y6.705 E.0155
G1 X158.147 Y6.585 E.0155
G1 X158.64 Y6.551 E.0155
G1 X159.132 Y6.602 E.0155
G1 X159.607 Y6.739 E.0155
G1 X160.052 Y6.955 E.0155
G1 X160.452 Y7.246 E.0155
G1 X160.795 Y7.602 E.0155
G1 X161.071 Y8.011 E.0155
G1 X161.273 Y8.463 E.0155
G1 X161.392 Y8.943 E.0155
G1 X161.427 Y9.337 E.01242
G1 X161.375 Y9.928 E.01858
G1 X161.239 Y10.403 E.0155
G1 X161.022 Y10.847 E.0155
G1 X160.732 Y11.247 E.0155
G1 X160.376 Y11.591 E.0155
G1 X159.966 Y11.867 E.0155
G1 X159.515 Y12.068 E.0155
G1 X159.035 Y12.188 E.0155
G1 X158.542 Y12.222 E.0155
G1 X158.05 Y12.171 E.0155
G1 X157.575 Y12.034 E.0155
G1 X157.13 Y11.818 E.0155
G1 X156.68 Y11.477 E.01769
G1 X156.464 Y11.252 E.0098
M204 P1000
G1 X156.855 Y11.117 F9000
M204 P600
;TYPE:External perimeter
G1 F1200
G1 X156.696 Y10.955 E.00709
G1 X156.452 Y10.602 E.01345
G1 X156.274 Y10.213 E.01345
G1 X156.165 Y9.798 E.01345
G1 X156.131 Y9.37 E.01345
G1 X156.171 Y8.943 E.01345
G1 X156.285 Y8.53 E.01345
G1 X156.469 Y8.142 E.01345
G1 X156.717 Y7.793 E.01345
G1 X157.022 Y7.491 E.01345
G1 X157.375 Y7.248 E.01345
G1 X157.765 Y7.069 E.01345
G1 X158.18 Y6.961 E.01345
G1 X158.607 Y6.926 E.01345
G1 X159.034 Y6.967 E.01345
G1 X159.448 Y7.08 E.01345
G1 X159.835 Y7.264 E.01345
G1 X160.185 Y7.513 E.01345
G1 X160.486 Y7.818 E.01345
G1 X160.73 Y8.171 E.01345
G1 X160.908 Y8.561 E.01345
G1 X161.017 Y8.976 E.01345
G1 X161.051 Y9.37 E.01242
G1 X161.011 Y9.83 E.01447
G1 X160.897 Y10.243 E.01345
G1 X160.713 Y10.631 E.01345
G1 X160.465 Y10.981 E.01345
G1 X160.16 Y11.282 E.01345
G1 X159.807 Y11.525 E.01345
G1 X159.417 Y11.704 E.01345
G1 X159.002 Y11.812 E.01345
G1 X158.575 Y11.847 E.01345
G1 X158.148 Y11.806 E.01345
G1 X157.734 Y11.693 E.01345
G1 X157.347 Y11.509 E.01345
G1 X156.897 Y11.159 E.01787
M204 P1000
G1 X156.64 Y11.189 F9000
G1 E-2.24 F4200
;WIPE_START
G1 F7200
G1 X156.696 Y10.955 E-.1586
G1 X156.452 Y10.602 E-.23765
G1 X156.274 Y10.213 E-.23765
G1 X156.165 Y9.798 E-.23764
G1 X156.16 Y9.725 E-.04046
;WIPE_END
G1 E-.048 F4200
G1 Z.4 F720
G1 X168.968 Y33.656 F9000
G1 Z.2 F720
G1 E3.2 F2400
M204 P600
;TYPE:Perimeter
G1 F1200
G1 X168.929 Y33.706 E.00199
G1 X168.535 Y33.944 E.01443
G1 X165.574 Y35.654 E.10722
G1 X165.291 Y35.73 E.00918
G1 X165.008 Y35.654 E.00918
G1 X161.737 Y33.765 E.11844
G1 X161.536 Y33.569 E.00878
G1 X161.454 Y33.298 E.00888
G1 X161.454 Y29.498 E.11916
G1 X161.525 Y29.224 E.00886
M73 P1 R144
G1 X161.697 Y29.033 E.00808
G1 X162.203 Y28.739 E.01835
G1 X165.008 Y27.119 E.10155
G1 X165.288 Y27.043 E.0091
G1 X165.514 Y27.089 E.00723
G1 X165.574 Y27.119 E.00209
G1 X168.845 Y29.008 E.11844
G1 X169.007 Y29.148 E.0067
G1 X169.113 Y29.369 E.00769
G1 X169.128 Y29.498 E.00407
G1 X169.128 Y33.275 E.11844
G1 X169.071 Y33.523 E.00798
G1 X169.005 Y33.609 E.00338
M204 P1000
G1 X168.685 Y33.419 F9000
M204 P600
;TYPE:External perimeter
G1 F1200
G1 X165.385 Y35.327 E.11951
G1 X165.239 Y35.345 E.00463
G1 X161.925 Y33.439 E.11986
G1 X161.833 Y33.305 E.00507
G1 X161.831 Y33.275 E.00094
G1 X161.831 Y29.498 E.11844
G1 X161.901 Y29.352 E.00508
G1 X165.197 Y27.446 E.11938
G1 X165.29 Y27.42 E.00303
G1 X165.385 Y27.446 E.00309
G1 X168.657 Y29.335 E.11844
G1 X168.746 Y29.455 E.0047
G1 X168.751 Y29.498 E.00136
G1 X168.751 Y33.275 E.11844
G1 X168.71 Y33.364 E.00308
M204 P1000
G1 X168.82 Y33.795 F9000
G1 E-2.24 F4200
;WIPE_START
G1 F7200
G1 X167.293 Y34.201 E-.912
;WIPE_END
G1 E-.048 F4200
G1 Z.4 F720
G1 X168.9 Y41.756 F9000
G1 Z.2 F720
G1 E3.2 F2400
M204 P600
;TYPE:Perimeter
G1 F1200
G1 X169.007 Y41.848 E.00441
G1 X169.113 Y42.069 E.00769
G1 X169.128 Y42.198 E.00407
G1 X169.128 Y45.975 E.11844
G1 X169.071 Y46.223 E.00798
G1 X168.929 Y46.406 E.00725
G1 X168.845 Y46.465 E.00322
G1 X165.574 Y48.354 E.11844
G1 X165.51 Y48.386 E.00225
G1 X165.291 Y48.43 E.00699
G1 X165.008 Y48.354 E.00918
G1 X161.737 Y46.465 E.11844
G1 X161.532 Y46.261 E.00907
G1 X161.454 Y45.975 E.00929
G1 X161.454 Y42.198 E.11844
G1 X161.524 Y41.926 E.00881
G1 X161.679 Y41.746 E.00743
G1 X161.737 Y41.708 E.00218
G1 X165.008 Y39.819 E.11844
G1 X165.291 Y39.743 E.00918
G1 X165.574 Y39.819 E.00918
G1 X168.855 Y41.716 E.11884
M204 P1000
G1 X168.657 Y42.035 F9000
M204 P600
;TYPE:External perimeter
G1 F1200
G1 X168.746 Y42.155 E.0047
G1 X168.751 Y42.198 E.00136
G1 X168.751 Y45.975 E.11844
G1 X168.685 Y46.119 E.00496
G1 X168.657 Y46.139 E.00107
G1 X165.385 Y48.027 E.11844
G1 X165.218 Y48.038 E.00525
G1 X161.925 Y46.139 E.11919
G1 X161.835 Y46.013 E.00486
G1 X161.831 Y42.198 E.11962
G1 X161.891 Y42.06 E.00471
G1 X161.925 Y42.035 E.00134
G1 X165.197 Y40.146 E.11844
G1 X165.343 Y40.128 E.00463
G1 X168.605 Y42.005 E.11798
M204 P1000
G1 X168.802 Y41.996 F9000
G1 E-2.24 F4200
;WIPE_START
G1 F7200
G1 X168.746 Y42.155 E-.11431
G1 X168.751 Y42.198 E-.02397
G1 X168.751 Y43.594 E-.77372
;WIPE_END
G1 E-.048 F4200
G1 Z.4 F720
G1 X118.208 Y108.959 F9000
G1 Z.2 F720
G1 E3.2 F2400
M204 P600
;TYPE:Perimeter
G1 F1200
G1 X118.204 Y59.265 E1.55811
G1 X118.255 Y59.03 E.00756
G1 X118.385 Y58.851 E.00693
G1 X118.62 Y58.72 E.00845
G1 X119.6 Y58.7 E.03072
G1 X168.412 Y58.7 E1.53048
G1 X168.639 Y58.747 E.00726
G1 X168.797 Y58.851 E.00593
G1 X168.927 Y59.03 E.00693
G1 X168.978 Y59.265 E.00756
G1 X168.978 Y108.908 E1.55652
G1 X168.926 Y109.144 E.00758
M73 P1 R143
G1 X168.796 Y109.324 E.00695
G1 X168.566 Y109.452 E.00828
G1 X168.412 Y109.474 E.00486
G1 X118.77 Y109.474 E1.55652
G1 X118.545 Y109.427 E.0072
G1 X118.314 Y109.243 E.00925
G1 X118.217 Y109.018 E.00769
M204 P1000
G1 X118.581 Y108.908 F9000
M204 P600
;TYPE:External perimeter
G1 F1200
G1 X118.581 Y59.265 E1.55652
G1 X118.641 Y59.127 E.00473
G1 X118.77 Y59.077 E.00432
G1 X168.412 Y59.077 E1.55652
G1 X168.541 Y59.127 E.00432
G1 X168.601 Y59.265 E.00473
G1 X168.601 Y108.908 E1.55652
G1 X168.54 Y109.047 E.00474
G1 X168.412 Y109.097 E.00431
G1 X118.77 Y109.097 E1.55652
G1 X118.642 Y109.047 E.00431
G1 X118.605 Y108.963 E.00286
M204 P1000
G1 X118.195 Y108.805 F9000
G1 E-2.24 F4200
;WIPE_START
G1 F7200
G1 X118.604 Y107.317 E-.912
;WIPE_END
G1 E-.048 F4200
G1 Z.4 F720
G1 X122.086 Y39.796 F9000
G1 Z.2 F720
G1 E3.2 F2400
M204 P600
;TYPE:Perimeter
G1 F1200
G1 X122.174 Y39.819 E.00284
G1 X125.445 Y41.708 E.11844
G1 X125.646 Y41.904 E.00878
G1 X125.728 Y42.176 E.0089
G1 X125.728 Y45.975 E.11914
G1 X125.674 Y46.217 E.00775
G1 X125.498 Y46.431 E.00868
G1 X125.445 Y46.465 E.00199
G1 X122.174 Y48.354 E.11844
G1 X121.891 Y48.43 E.00918
G1 X121.608 Y48.354 E.00918
G1 X118.337 Y46.465 E.11844
G1 X118.175 Y46.325 E.0067
G1 X118.062 Y46.073 E.00866
G1 X118.054 Y45.975 E.00308
G1 X118.054 Y42.198 E.11844
G1 X118.111 Y41.95 E.00798
G1 X118.253 Y41.767 E.00725
G1 X121.608 Y39.819 E.12165
G1 X121.891 Y39.743 E.00918
G1 X122.028 Y39.78 E.00446
M204 P1000
G1 X121.985 Y40.146 F9000
M204 P600
;TYPE:External perimeter
G1 F1200
G1 X125.257 Y42.035 E.11844
G1 X125.349 Y42.168 E.00508
G1 X125.351 Y45.975 E.11937
G1 X125.29 Y46.114 E.00475
G1 X125.257 Y46.139 E.0013
G1 X121.985 Y48.027 E.11844
G1 X121.841 Y48.046 E.00455
G1 X118.525 Y46.139 E.11995
G1 X118.434 Y46.008 E.005
G1 X118.431 Y42.198 E.11946
G1 X118.497 Y42.054 E.00496
G1 X121.797 Y40.146 E.11951
G1 X121.929 Y40.13 E.00418
M204 P1000
G1 X122.245 Y39.841 F9000
G1 E-2.24 F4200
;WIPE_START
G1 F7200
G1 X123.357 Y40.947 E-.912
;WIPE_END
G1 E-.048 F4200
G1 Z.4 F720
G1 X125.495 Y33.725 F9000
G1 Z.2 F720
G1 E3.2 F2400
M204 P600
;TYPE:Perimeter
G1 F1200
G1 X122.174 Y35.654 E.12042
G1 X121.891 Y35.73 E.00918
G1 X121.608 Y35.654 E.00918
G1 X118.337 Y33.765 E.11844
G1 X118.175 Y33.625 E.0067
G1 X118.062 Y33.373 E.00866
G1 X118.054 Y33.275 E.00308
G1 X118.054 Y29.498 E.11844
G1 X118.111 Y29.25 E.00798
G1 X118.253 Y29.067 E.00725
G1 X118.337 Y29.008 E.00322
G1 X121.608 Y27.119 E.11844
G1 X121.866 Y27.044 E.00842
G1 X122.134 Y27.098 E.00856
G1 X125.445 Y29.008 E.11986
G1 X125.646 Y29.204 E.00878
G1 X125.728 Y29.498 E.00958
G1 X125.728 Y33.275 E.11844
G1 X125.709 Y33.42 E.00458
G1 X125.583 Y33.654 E.00833
G1 X125.541 Y33.687 E.00167
M204 P1000
G1 X125.257 Y33.439 F9000
M204 P600
;TYPE:External perimeter
G1 F1200
G1 X121.985 Y35.327 E.11844
G1 X121.839 Y35.345 E.00463
G1 X118.525 Y33.439 E.11986
G1 X118.434 Y33.308 E.005
G1 X118.431 Y33.275 E.00103
G1 X118.431 Y29.498 E.11844
G1 X118.497 Y29.354 E.00496
G1 X121.797 Y27.446 E.11951
G1 X121.957 Y27.432 E.00504
G1 X125.257 Y29.335 E.11943
G1 X125.348 Y29.465 E.00499
G1 X125.351 Y29.498 E.00104
G1 X125.351 Y33.275 E.11844
G1 X125.345 Y33.324 E.00153
G1 X125.293 Y33.391 E.00266
M204 P1000
G1 X125.326 Y33.833 F9000
G1 E-2.24 F4200
;WIPE_START
G1 F7200
G1 X123.873 Y34.222 E-.912
;WIPE_END
G1 E-.048 F4200
G1 Z.4 F720
G1 X130.002 Y11.842 F9000
G1 Z.2 F720
G1 E3.2 F2400
M204 P600
;TYPE:Perimeter
G1 F1200
G1 X129.587 Y12.044 E.01449
G1 X129.089 Y12.18 E.01617
G1 X128.542 Y12.222 E.01722
G1 X128.05 Y12.171 E.0155
G1 X127.575 Y12.034 E.0155
G1 X127.13 Y11.818 E.0155
G1 X126.823 Y11.595 E.01191
G1 X126.424 Y11.219 E.01719
G1 X126.134 Y10.806 E.01583
G1 X125.919 Y10.342 E.01604
G1 X125.79 Y9.83 E.01653
G1 X125.755 Y9.337 E.0155
G1 X125.807 Y8.846 E.0155
G1 X125.943 Y8.37 E.0155
G1 X126.16 Y7.926 E.0155
G1 X126.45 Y7.526 E.0155
G1 X126.806 Y7.183 E.0155
G1 X127.216 Y6.906 E.0155
G1 X127.667 Y6.705 E.0155
G1 X128.147 Y6.585 E.0155
G1 X128.64 Y6.551 E.0155
G1 X129.132 Y6.602 E.0155
G1 X129.607 Y6.739 E.0155
G1 X130.052 Y6.955 E.0155
G1 X130.452 Y7.246 E.0155
G1 X130.795 Y7.602 E.0155
G1 X131.071 Y8.011 E.0155
G1 X131.273 Y8.463 E.0155
G1 X131.392 Y8.943 E.0155
G1 X131.427 Y9.436 E.0155
G1 X131.375 Y9.928 E.0155
G1 X131.239 Y10.403 E.0155
G1 X131.022 Y10.847 E.0155
G1 X130.732 Y11.247 E.0155
G1 X130.502 Y11.477 E.0102
G1 X130.056 Y11.815 E.01753
M204 P1000
G1 X130.197 Y11.239 F9000
M204 P600
;TYPE:External perimeter
G1 F1200
G1 X129.829 Y11.513 E.01436
G1 X129.417 Y11.704 E.01425
G1 X129.002 Y11.812 E.01345
G1 X128.575 Y11.847 E.01345
G1 X128.148 Y11.806 E.01345
G1 X127.734 Y11.693 E.01345
G1 X127.347 Y11.509 E.01345
G1 X127.08 Y11.32 E.01025
G1 X126.708 Y10.971 E.01598
G1 X126.452 Y10.602 E.01407
G1 X126.274 Y10.213 E.01345
G1 X126.165 Y9.798 E.01345
G1 X126.131 Y9.37 E.01345
G1 X126.171 Y8.943 E.01345
G1 X126.285 Y8.53 E.01345
G1 X126.469 Y8.142 E.01345
G1 X126.717 Y7.793 E.01345
G1 X127.022 Y7.491 E.01345
G1 X127.375 Y7.248 E.01345
G1 X127.765 Y7.069 E.01345
G1 X128.18 Y6.961 E.01345
G1 X128.607 Y6.926 E.01345
G1 X129.034 Y6.967 E.01345
G1 X129.448 Y7.08 E.01345
G1 X129.835 Y7.264 E.01345
G1 X130.185 Y7.513 E.01345
G1 X130.486 Y7.818 E.01345
G1 X130.73 Y8.171 E.01345
G1 X130.908 Y8.561 E.01345
G1 X131.017 Y8.976 E.01345
G1 X131.051 Y9.403 E.01345
G1 X131.011 Y9.83 E.01345
G1 X130.897 Y10.243 E.01345
G1 X130.713 Y10.631 E.01345
G1 X130.465 Y10.981 E.01345
G1 X130.243 Y11.202 E.00982
M204 P1000
G1 X130.273 Y11.632 F9000
G1 E-2.24 F4200
;WIPE_START
G1 F7200
G1 X129.829 Y11.513 E-.28697
G1 X129.417 Y11.704 E-.25185
G1 X129.002 Y11.812 E-.23764
G1 X128.758 Y11.832 E-.13554
;WIPE_END
G1 E-.048 F4200
G1 Z.4 F720
G1 X125.801 Y113.898 F9000
G1 Z.2 F720
G1 E3.2 F2400
M204 P600
;TYPE:Perimeter
G1 F1200
G1 X125.943 Y113.37 E.01712
G1 X126.16 Y112.926 E.0155
G1 X126.45 Y112.526 E.0155
G1 X126.806 Y112.183 E.0155
G1 X127.216 Y111.906 E.0155
G1 X127.667 Y111.705 E.0155
G1 X128.147 Y111.585 E.0155
G1 X128.64 Y111.551 E.0155
G1 X129.132 Y111.602 E.0155
G1 X129.607 Y111.739 E.0155
G1 X130.052 Y111.955 E.0155
G1 X130.452 Y112.246 E.0155
G1 X130.795 Y112.602 E.0155
G1 X131.071 Y113.011 E.0155
G1 X131.273 Y113.463 E.0155
G1 X131.392 Y113.943 E.0155
G1 X131.427 Y114.436 E.0155
G1 X131.375 Y114.928 E.0155
G1 X131.239 Y115.403 E.0155
G1 X131.022 Y115.847 E.0155
G1 X130.732 Y116.247 E.0155
G1 X130.376 Y116.591 E.0155
G1 X129.966 Y116.867 E.0155
G1 X129.515 Y117.068 E.0155
G1 X129.035 Y117.188 E.0155
G1 X128.542 Y117.222 E.0155
G1 X128.05 Y117.171 E.0155
G1 X127.575 Y117.034 E.0155
G1 X127.13 Y116.818 E.0155
G1 X126.73 Y116.527 E.0155
G1 X126.466 Y116.255 E.01191
G1 X126.11 Y115.762 E.01905
G1 X125.909 Y115.31 E.0155
G1 X125.807 Y114.928 E.01242
G1 X125.755 Y114.337 E.01858
G1 X125.795 Y113.957 E.01198
M204 P1000
G1 X126.164 Y114.022 F9000
M204 P600
;TYPE:External perimeter
G1 F1200
G1 X126.285 Y113.53 E.0159
G1 X126.469 Y113.142 E.01345
G1 X126.717 Y112.793 E.01345
G1 X127.022 Y112.491 E.01345
G1 X127.375 Y112.248 E.01345
G1 X127.765 Y112.069 E.01345
G1 X128.18 Y111.961 E.01345
G1 X128.607 Y111.926 E.01345
