;FLAVOR:Marlin
;TIME:741
;Filament used: 0.403592m
;Layer height: 0.2
;MINX:50.32
;MINY:46.8
;MINZ:0.2
;MAXX:99.68
;MAXY:89.9
;MAXZ:2
;Generated with Cura_SteamEngine main
M140 S50
M105
M190 S50
M104 S220
M105
M109 S220
M82 ;absolute extrusion mode
M201 X500.00 Y500.00 Z100.00 E5000.00 ;Setup machine max acceleration
M203 X500.00 Y500.00 Z10.00 E50.00 ;Setup machine max feedrate
M204 P500.00 R1000.00 T500.00 ;Setup Print/Retract/Travel acceleration
M205 X8.00 Y8.00 Z0.40 E5.00 ;Setup Jerk
M220 S100 ;Reset Feedrate
M221 S100 ;Reset Flowrate

G28 ;Home

G92 E0 ;Reset Extruder
G1 Z2.0 F3000 ;Move Z Axis up
G1 X10.1 Y20 Z0.28 F5000.0 ;Move to start position
G1 X10.1 Y100.0 Z0.28 F1500.0 E8 ;Draw the first line
G1 X10.4 Y100.0 Z0.28 F5000.0 ;Move to side a little
G1 X10.4 Y20 Z0.28 F1500.0 E15 ;Draw the second line
G92 E0 ;Reset Extruder
G1 Z2.0 F3000 ;Move Z Axis up

G92 E0
G92 E0
G1 F2700 E-5
;LAYER_COUNT:10
;LAYER:0
M107
G0 F6000 X54.595 Y51.854 Z0.2
G0 X50.32 Y63.176
;TYPE:SKIRT
G1 F2700 E0
G1 F1200 X50.328 Y62.08 E0.03645
G1 X50.35 Y61.696 E0.04925
G1 X50.402 Y61.048 E0.07087
G1 X50.574 Y59.847 E0.11122
G1 X50.716 Y59.163 E0.13446
G1 X50.795 Y58.826 E0.14597
G1 X51.132 Y57.677 E0.1858
G1 X51.265 Y57.3 E0.19909
G1 X51.515 Y56.646 E0.22238
G1 X52.093 Y55.407 E0.26785
G1 X52.427 Y54.794 E0.29107
G1 X52.91 Y53.99 E0.32227
G1 X53.19 Y53.587 E0.33859
G1 X53.621 Y53.003 E0.36273
G1 X53.812 Y52.757 E0.37309
G1 X54.595 Y51.854 E0.41284
G1 X54.863 Y51.577 E0.42566
G1 X55.319 Y51.128 E0.44694
G1 X56.375 Y50.222 E0.49322
G1 X56.936 Y49.8 E0.51657
G1 X57.709 Y49.269 E0.54776
G1 X58.267 Y48.942 E0.56927
G1 X58.879 Y48.607 E0.59248
G1 X59.72 Y48.192 E0.62367
G1 X60.527 Y47.866 E0.65262
G1 X61.136 Y47.645 E0.67417
G1 X62.296 Y47.304 E0.71438
G1 X62.705 Y47.208 E0.72835
G1 X63.308 Y47.081 E0.74885
G1 X64.569 Y46.9 E0.79122
G1 X65.376 Y46.841 E0.81813
G1 X66.054 Y46.811 E0.84071
G1 X66.54 Y46.8 E0.85687
G1 X83.326 Y46.802 E1.41518
G1 X84.268 Y46.822 E1.44652
G1 X84.988 Y46.861 E1.4705
G1 X85.448 Y46.901 E1.48586
G1 X86.608 Y47.065 E1.52482
G1 X87.375 Y47.224 E1.55087
G1 X87.711 Y47.304 E1.56236
G1 X88.825 Y47.633 E1.601
G1 X89.553 Y47.896 E1.62674
G1 X89.846 Y48.011 E1.63721
G1 X91.073 Y48.583 E1.68224
G1 X91.683 Y48.914 E1.70532
G1 X92.488 Y49.396 E1.73653
G1 X92.903 Y49.683 E1.75331
G1 X93.214 Y49.909 E1.7661
G1 X93.736 Y50.307 E1.78793
G1 X94.646 Y51.095 E1.82797
G1 X94.923 Y51.363 E1.84079
G1 X95.372 Y51.819 E1.86207
G1 X96.278 Y52.875 E1.90835
G1 X96.7 Y53.436 E1.9317
G1 X97.231 Y54.209 E1.96289
G1 X97.558 Y54.767 E1.9844
G1 X97.893 Y55.379 E2.0076
G1 X98.308 Y56.22 E2.0388
G1 X98.543 Y56.797 E2.05952
G1 X98.785 Y57.442 E2.08243
G1 X99.077 Y58.333 E2.11362
G1 X99.292 Y59.204 E2.14346
G1 X99.418 Y59.799 E2.16368
G1 X99.566 Y60.725 E2.19487
G1 X99.61 Y61.196 E2.21061
G1 X99.661 Y61.897 E2.23399
G1 X99.68 Y63.163 E2.2761
G1 X99.566 Y65.841 E2.36525
G1 X99.531 Y68.338 E2.44831
G1 X99.568 Y70.885 E2.53303
G1 X99.68 Y73.522 E2.62082
G1 X99.672 Y74.615 E2.65717
G1 X99.65 Y75.001 E2.67003
G1 X99.598 Y75.652 E2.69175
G1 X99.426 Y76.853 E2.7321
G1 X99.284 Y77.537 E2.75534
G1 X99.205 Y77.874 E2.76685
G1 X98.868 Y79.023 E2.80668
G1 X98.735 Y79.4 E2.81997
G1 X98.488 Y80.048 E2.84304
G1 X97.918 Y81.271 E2.88792
G1 X97.587 Y81.881 E2.911
G1 X97.105 Y82.686 E2.94221
G1 X96.826 Y83.09 E2.95854
G1 X96.379 Y83.697 E2.98361
G1 X96.188 Y83.943 E2.99397
G1 X95.405 Y84.846 E3.03372
G1 X95.137 Y85.123 E3.04654
G1 X94.681 Y85.572 E3.06782
G1 X93.625 Y86.478 E3.1141
G1 X93.064 Y86.9 E3.13745
G1 X92.291 Y87.431 E3.16864
G1 X91.733 Y87.758 E3.19015
G1 X91.121 Y88.093 E3.21336
G1 X90.28 Y88.508 E3.24455
G1 X89.831 Y88.694 E3.26072
G1 X89.161 Y88.95 E3.28457
G1 X88.874 Y89.052 E3.2947
G1 X87.704 Y89.396 E3.33526
G1 X87.295 Y89.492 E3.34924
G1 X86.692 Y89.619 E3.36973
G1 X85.431 Y89.8 E3.4121
G1 X84.624 Y89.859 E3.43902
G1 X83.946 Y89.889 E3.46159
G1 X83.46 Y89.9 E3.47776
G1 X66.674 Y89.898 E4.03606
G1 X65.731 Y89.878 E4.06743
G1 X65.009 Y89.838 E4.09148
G1 X64.55 Y89.798 E4.10681
G1 X63.392 Y89.635 E4.1457
G1 X62.625 Y89.476 E4.17176
G1 X62.289 Y89.396 E4.18324
G1 X61.17 Y89.066 E4.22205
G1 X60.791 Y88.932 E4.23542
G1 X60.15 Y88.687 E4.25824
G1 X59.059 Y88.188 E4.29814
G1 X58.72 Y88.01 E4.31088
G1 X58.142 Y87.689 E4.33287
G1 X57.104 Y87.022 E4.3739
G1 X56.791 Y86.795 E4.38677
G1 X56.251 Y86.383 E4.40936
G1 X55.354 Y85.604 E4.44887
G1 X55.078 Y85.337 E4.46164
G1 X54.609 Y84.861 E4.48387
G1 X53.719 Y83.821 E4.5294
G1 X53.3 Y83.264 E4.55258
G1 X52.769 Y82.491 E4.58377
G1 X52.438 Y81.926 E4.60555
G1 X52.103 Y81.313 E4.62878
G1 X51.51 Y80.04 E4.67549
G1 X51.25 Y79.361 E4.69968
G1 X51.148 Y79.074 E4.70981
G1 X50.804 Y77.904 E4.75037
G1 X50.708 Y77.495 E4.76434
G1 X50.581 Y76.892 E4.78484
G1 X50.39 Y75.504 E4.83144
G1 X50.339 Y74.804 E4.85478
G1 X50.32 Y73.537 E4.89693
G1 X50.434 Y70.859 E4.98608
G1 X50.469 Y68.338 E5.06993
G1 X50.432 Y65.815 E5.15386
G1 X50.32 Y63.176 E5.24171
G0 F6000 X50.72 Y63.159
G1 F1200 X50.727 Y62.103 E5.27683
G1 X50.749 Y61.719 E5.28963
G1 X50.8 Y61.083 E5.31085
G1 X50.966 Y59.925 E5.34976
G1 X51.032 Y59.595 E5.36095
G1 X51.185 Y58.918 E5.38404
G1 X51.509 Y57.81 E5.42243
G1 X51.642 Y57.433 E5.43573
G1 X51.887 Y56.792 E5.45855
G1 X52.444 Y55.598 E5.50237
G1 X52.778 Y54.985 E5.52559
G1 X53.513 Y53.822 E5.57135
G1 X53.737 Y53.514 E5.58402
G1 X54.128 Y53.002 E5.60544
G1 X54.883 Y52.132 E5.64376
G1 X55.378 Y51.627 E5.66728
G1 X55.597 Y51.414 E5.67744
G1 X56.616 Y50.542 E5.72204
G1 X57.177 Y50.12 E5.74539
G1 X57.936 Y49.599 E5.77601
G1 X58.459 Y49.293 E5.79617
G1 X59.071 Y48.958 E5.81937
G1 X60.309 Y48.381 E5.8648
G1 X60.673 Y48.239 E5.8778
G1 X61.269 Y48.022 E5.89889
G1 X62.388 Y47.693 E5.93769
G1 X62.797 Y47.597 E5.95166
G1 X63.387 Y47.473 E5.97171
G1 X64.603 Y47.299 E6.01257
G1 X65.393 Y47.24 E6.03892
G1 X66.071 Y47.21 E6.06149
G1 X66.54 Y47.2 E6.07709
G1 X83.318 Y47.202 E6.63513
G1 X84.26 Y47.222 E6.66647
G1 X84.953 Y47.26 E6.68955
G1 X85.413 Y47.3 E6.70491
G1 X86.532 Y47.457 E6.74249
G1 X86.864 Y47.522 E6.75374
G1 X87.618 Y47.693 E6.77946
G1 X88.692 Y48.01 E6.8167
G1 X89.063 Y48.141 E6.82979
G1 X89.7 Y48.384 E6.85247
G1 X90.882 Y48.934 E6.89583
G1 X91.492 Y49.265 E6.91891
G1 X92.282 Y49.739 E6.94955
G1 X92.668 Y50.007 E6.96518
G1 X93.242 Y50.43 E6.9889
G1 X93.491 Y50.623 E6.99937
G1 X94.368 Y51.383 E7.03797
G1 X94.873 Y51.878 E7.06149
G1 X95.086 Y52.097 E7.07165
G1 X95.958 Y53.116 E7.11626
G1 X96.38 Y53.677 E7.13961
G1 X96.901 Y54.436 E7.17023
G1 X97.207 Y54.959 E7.19038
G1 X97.542 Y55.571 E7.21359
G1 X97.949 Y56.397 E7.24421
G1 X98.168 Y56.937 E7.2636
G1 X98.41 Y57.582 E7.28651
G1 X98.805 Y58.882 E7.3317
G1 X98.902 Y59.295 E7.34581
G1 X99.026 Y59.879 E7.36567
G1 X99.211 Y61.225 E7.41086
G1 X99.262 Y61.926 E7.43423
G1 X99.28 Y63.146 E7.47481
G1 X99.166 Y65.819 E7.5638
G1 X99.131 Y68.338 E7.64759
G1 X99.168 Y70.908 E7.73308
G1 X99.28 Y73.539 E7.82066
G1 X99.273 Y74.592 E7.85569
G1 X99.251 Y74.978 E7.86855
G1 X99.2 Y75.617 E7.88987
G1 X99.034 Y76.775 E7.92878
G1 X98.968 Y77.105 E7.93997
G1 X98.815 Y77.782 E7.96305
G1 X98.491 Y78.89 E8.00145
G1 X98.228 Y79.617 E8.02716
G1 X98.116 Y79.902 E8.03735
G1 X97.567 Y81.08 E8.08058
G1 X97.236 Y81.69 E8.10366
G1 X96.502 Y82.855 E8.14946
G1 X96.063 Y83.452 E8.1741
G1 X95.872 Y83.698 E8.18446
G1 X95.117 Y84.568 E8.22277
G1 X94.622 Y85.073 E8.24629
G1 X94.403 Y85.286 E8.25645
G1 X93.384 Y86.158 E8.30106
G1 X92.823 Y86.58 E8.32441
G1 X92.064 Y87.101 E8.35503
G1 X91.541 Y87.407 E8.37518
G1 X90.929 Y87.742 E8.39839
G1 X89.686 Y88.321 E8.444
G1 X89.027 Y88.573 E8.46746
G1 X88.74 Y88.675 E8.47759
G1 X87.612 Y89.007 E8.5167
G1 X87.203 Y89.103 E8.53068
G1 X86.613 Y89.227 E8.55073
G1 X85.397 Y89.401 E8.59158
G1 X84.607 Y89.46 E8.61793
G1 X83.929 Y89.49 E8.64051
G1 X83.46 Y89.5 E8.65611
G1 X66.682 Y89.498 E9.21415
G1 X65.739 Y89.478 E9.24552
G1 X65.044 Y89.44 E9.26867
G1 X64.585 Y89.4 E9.28399
G1 X63.468 Y89.243 E9.32151
G1 X63.136 Y89.178 E9.33276
G1 X62.382 Y89.007 E9.35848
G1 X61.304 Y88.689 E9.39586
G1 X60.581 Y88.427 E9.42144
G1 X60.296 Y88.315 E9.43162
G1 X59.245 Y87.834 E9.47006
G1 X58.906 Y87.656 E9.4828
G1 X58.339 Y87.341 E9.50437
G1 X57.339 Y86.698 E9.54391
G1 X57.026 Y86.471 E9.55677
G1 X56.497 Y86.067 E9.57891
G1 X55.632 Y85.317 E9.61699
G1 X55.356 Y85.05 E9.62976
G1 X54.896 Y84.583 E9.65157
G1 X54.039 Y83.58 E9.69545
G1 X53.62 Y83.023 E9.71863
G1 X53.099 Y82.264 E9.74925
G1 X52.789 Y81.734 E9.76967
G1 X52.454 Y81.121 E9.7929
G1 X51.882 Y79.894 E9.83793
G1 X51.741 Y79.533 E9.85082
G1 X51.525 Y78.94 E9.87181
G1 X51.193 Y77.812 E9.91092
G1 X51.097 Y77.403 E9.92489
G1 X50.973 Y76.813 E9.94495
G1 X50.789 Y75.475 E9.98987
G1 X50.738 Y74.775 E10.01321
G1 X50.72 Y73.554 E10.05383
G1 X50.834 Y70.881 E10.14281
G1 X50.869 Y68.338 E10.2274
G1 X50.832 Y65.792 E10.31209
G1 X50.72 Y63.159 E10.39974
G0 F6000 X51.119 Y63.142
G1 F1200 X51.127 Y62.126 E10.43353
G1 X51.149 Y61.742 E10.44633
G1 X51.199 Y61.118 E10.46715
G1 X51.358 Y60.004 E10.50458
G1 X51.495 Y59.346 E10.52693
G1 X51.574 Y59.009 E10.53844
G1 X51.886 Y57.944 E10.57535
G1 X52.019 Y57.567 E10.58865
G1 X52.259 Y56.938 E10.61104
G1 X52.795 Y55.79 E10.65318
G1 X53.129 Y55.177 E10.6764
G1 X53.837 Y54.058 E10.72044
G1 X54.253 Y53.494 E10.74375
G1 X54.444 Y53.248 E10.75411
G1 X55.17 Y52.411 E10.79096
G1 X55.657 Y51.914 E10.8141
G1 X55.876 Y51.701 E10.82427
G1 X56.856 Y50.862 E10.86717
G1 X57.417 Y50.44 E10.89052
G1 X58.162 Y49.929 E10.92057
G1 X58.651 Y49.644 E10.9394
G1 X59.263 Y49.309 E10.9626
G1 X60.454 Y48.753 E11.00632
G1 X60.818 Y48.611 E11.01931
G1 X61.403 Y48.399 E11.04001
G1 X62.479 Y48.083 E11.07731
G1 X62.888 Y47.987 E11.09128
G1 X63.467 Y47.865 E11.11096
G1 X64.636 Y47.697 E11.15024
G1 X65.411 Y47.64 E11.17609
G1 X66.089 Y47.61 E11.19866
G1 X66.54 Y47.6 E11.21366
G1 X83.31 Y47.602 E11.77144
G1 X84.252 Y47.622 E11.80277
G1 X84.919 Y47.658 E11.82499
G1 X85.379 Y47.698 E11.84035
G1 X86.455 Y47.85 E11.87649
G1 X87.19 Y48.002 E11.90146
G1 X87.526 Y48.082 E11.91294
G1 X88.559 Y48.387 E11.94877
G1 X89.261 Y48.641 E11.9736
G1 X89.554 Y48.756 E11.98407
G1 X90.692 Y49.286 E12.02582
G1 X91.302 Y49.617 E12.0489
G1 X92.433 Y50.331 E12.09339
G1 X92.997 Y50.746 E12.11668
G1 X93.246 Y50.939 E12.12716
G1 X94.089 Y51.67 E12.16427
G1 X94.586 Y52.157 E12.18741
G1 X94.799 Y52.376 E12.19757
G1 X95.638 Y53.356 E12.24048
G1 X96.06 Y53.917 E12.26383
G1 X96.571 Y54.662 E12.29388
G1 X96.856 Y55.151 E12.3127
G1 X97.191 Y55.763 E12.33591
G1 X97.589 Y56.574 E12.36596
G1 X97.794 Y57.078 E12.38405
G1 X98.036 Y57.723 E12.40696
G1 X98.416 Y58.974 E12.45045
G1 X98.513 Y59.387 E12.46456
G1 X98.634 Y59.959 E12.48401
G1 X98.812 Y61.254 E12.52748
G1 X98.863 Y61.955 E12.55086
G1 X98.881 Y63.129 E12.58991
G1 X98.766 Y65.831 E12.67986
G1 X98.731 Y68.338 E12.76325
G1 X98.768 Y70.895 E12.84831
G1 X98.881 Y73.556 E12.93689
G1 X98.873 Y74.569 E12.97059
G1 X98.851 Y74.955 E12.98345
G1 X98.801 Y75.582 E13.00437
G1 X98.642 Y76.696 E13.04179
G1 X98.505 Y77.354 E13.06415
G1 X98.426 Y77.691 E13.07566
G1 X98.114 Y78.756 E13.11257
G1 X97.981 Y79.133 E13.12587
G1 X97.743 Y79.756 E13.14805
G1 X97.215 Y80.89 E13.18966
G1 X96.884 Y81.5 E13.21274
G1 X96.178 Y82.62 E13.25677
G1 X95.747 Y83.206 E13.28097
G1 X95.556 Y83.452 E13.29133
G1 X94.83 Y84.289 E13.32818
G1 X94.343 Y84.786 E13.35132
G1 X94.124 Y84.999 E13.36148
G1 X93.144 Y85.838 E13.40439
G1 X92.583 Y86.26 E13.42774
G1 X91.838 Y86.771 E13.45779
G1 X91.349 Y87.056 E13.47661
G1 X90.737 Y87.391 E13.49982
G1 X89.541 Y87.948 E13.5437
G1 X88.893 Y88.196 E13.56678
G1 X88.606 Y88.298 E13.57691
G1 X87.521 Y88.617 E13.61452
G1 X87.112 Y88.713 E13.62849
G1 X86.533 Y88.835 E13.64817
G1 X85.364 Y89.003 E13.68745
G1 X84.589 Y89.06 E13.7133
G1 X83.911 Y89.09 E13.73587
G1 X83.46 Y89.1 E13.75088
G1 X66.691 Y89.098 E14.30862
G1 X65.748 Y89.078 E14.33999
G1 X65.078 Y89.041 E14.36231
G1 X64.619 Y89.001 E14.37763
G1 X63.545 Y88.85 E14.4137
G1 X62.81 Y88.698 E14.43867
G1 X62.474 Y88.618 E14.45015
G1 X61.437 Y88.312 E14.48612
G1 X61.058 Y88.178 E14.49949
G1 X60.442 Y87.942 E14.52143
G1 X59.431 Y87.48 E14.5584
G1 X59.092 Y87.302 E14.57113
G1 X58.537 Y86.993 E14.59226
G1 X57.574 Y86.374 E14.63034
G1 X57.261 Y86.147 E14.6432
G1 X56.742 Y85.751 E14.66491
G1 X55.91 Y85.029 E14.70155
G1 X55.399 Y84.528 E14.72535
G1 X55.183 Y84.305 E14.73568
G1 X54.359 Y83.34 E14.77788
G1 X53.94 Y82.783 E14.80106
G1 X53.429 Y82.038 E14.83111
G1 X53.14 Y81.542 E14.8502
G1 X52.805 Y80.929 E14.87344
G1 X52.255 Y79.749 E14.91674
G1 X52.114 Y79.388 E14.92963
G1 X51.902 Y78.806 E14.95023
G1 X51.583 Y77.721 E14.98784
G1 X51.487 Y77.312 E15.00182
G1 X51.365 Y76.733 E15.0215
G1 X51.188 Y75.446 E15.06471
G1 X51.137 Y74.746 E15.08805
G1 X51.119 Y73.571 E15.12714
G1 X51.234 Y70.869 E15.21709
G1 X51.269 Y68.338 E15.30128
G1 X51.232 Y65.805 E15.38553
G1 X51.119 Y63.142 E15.47418
G1 F2700 E10.47418
;MESH:Shim.STL(2)
G0 F6000 X64.04 Y63.924
G0 X66.222 Y65
;TYPE:WALL-INNER
G1 F2700 E15.47418
G1 F1200 X65.775 Y64.961 E15.48911
G1 X65.408 Y64.86 E15.50177
G1 X65.062 Y64.701 E15.51443
G1 X64.707 Y64.449 E15.52891
G1 X64.451 Y64.192 E15.54098
G1 X64.199 Y63.837 E15.55546
G1 X64.04 Y63.491 E15.56812
G1 X63.939 Y63.125 E15.58075
G1 X63.897 Y62.701 E15.59492
G1 X63.927 Y62.351 E15.60661
G1 X63.939 Y62.275 E15.60917
G1 X64.04 Y61.909 E15.62179
G1 X64.199 Y61.563 E15.63446
G1 X64.438 Y61.219 E15.64839
G1 X64.707 Y60.951 E15.66102
G1 X65.063 Y60.699 E15.67553
G1 X65.408 Y60.54 E15.68816
G1 X65.775 Y60.439 E15.70082
G1 X66.222 Y60.4 E15.71575
G1 X66.607 Y60.433 E15.7286
G1 X66.985 Y60.536 E15.74163
G1 X67.351 Y60.703 E15.75501
G1 X67.68 Y60.937 E15.76844
G1 X67.963 Y61.22 E15.78175
G1 X68.196 Y61.549 E15.79516
G1 X68.361 Y61.907 E15.80827
G1 X68.467 Y62.298 E15.82174
G1 X68.503 Y62.698 E15.8351
G1 X68.467 Y63.108 E15.84879
G1 X68.365 Y63.482 E15.86168
G1 X68.195 Y63.853 E15.87526
G1 X67.963 Y64.18 E15.88859
G1 X67.682 Y64.461 E15.90181
G1 X67.353 Y64.696 E15.91526
G1 X66.981 Y64.866 E15.92886
G1 X66.601 Y64.966 E15.94193
G1 X66.222 Y65 E15.95458
G0 F6000 X66.834 Y64.491
;TYPE:WALL-OUTER
G1 F1200 X66.532 Y64.572 E15.96498
G1 X66.182 Y64.6 E15.97666
G1 X65.85 Y64.568 E15.98776
G1 X65.566 Y64.491 E15.99754
G1 X65.254 Y64.35 E16.00893
G1 X64.989 Y64.163 E16.01972
G1 X64.749 Y63.925 E16.03096
G1 X64.562 Y63.665 E16.04161
G1 X64.415 Y63.351 E16.05314
G1 X64.33 Y63.04 E16.06387
G1 X64.3 Y62.72 E16.07456
G1 X64.326 Y62.385 E16.08573
G1 X64.409 Y62.067 E16.09666
G1 X64.55 Y61.755 E16.10805
G1 X64.737 Y61.489 E16.11887
G1 X64.988 Y61.237 E16.1307
G1 X65.235 Y61.062 E16.14076
G1 X65.548 Y60.915 E16.15227
G1 X65.86 Y60.83 E16.16302
G1 X66.218 Y60.8 E16.17497
G1 X66.55 Y60.832 E16.18606
G1 X66.834 Y60.909 E16.19585
G1 X67.165 Y61.062 E16.20798
G1 X67.433 Y61.256 E16.21898
G1 X67.666 Y61.493 E16.23004
G1 X67.838 Y61.735 E16.23991
G1 X67.978 Y62.033 E16.25086
G1 X68.074 Y62.385 E16.263
G1 X68.1 Y62.716 E16.27404
G1 X68.068 Y63.05 E16.2852
G1 X67.991 Y63.333 E16.29495
G1 X67.838 Y63.665 E16.30711
G1 X67.644 Y63.933 E16.31812
G1 X67.433 Y64.144 E16.32804
G1 X67.167 Y64.337 E16.33897
G1 X66.834 Y64.491 E16.35118
G1 F2700 E11.35118
G0 F6000 X66.911 Y64.779
G0 X66.269 Y65.179
G0 X66.163 Y66.814
G0 X66.223 Y67
;TYPE:WALL-INNER
G1 F2700 E16.35118
G1 F1200 X83.777 Y66.999 E16.93502
G1 X84.41 Y66.954 E16.95613
G1 X85.012 Y66.823 E16.97662
G1 X85.585 Y66.609 E16.99697
G1 X86.121 Y66.317 E17.01727
G1 X86.614 Y65.947 E17.03777
G1 X87.049 Y65.513 E17.05821
G1 X87.416 Y65.021 E17.07862
G1 X87.709 Y64.484 E17.09897
G1 X87.923 Y63.912 E17.11928
G1 X88.054 Y63.31 E17.13977
G1 X88.092 Y62.769 E17.15781
G1 X88.098 Y62.698 E17.16018
G1 X88.054 Y62.088 E17.18052
G1 X87.923 Y61.488 E17.20095
G1 X87.709 Y60.915 E17.22129
G1 X87.415 Y60.377 E17.24168
G1 X87.047 Y59.886 E17.26209
G1 X86.613 Y59.451 E17.28253
G1 X86.121 Y59.084 E17.30294
G1 X85.585 Y58.791 E17.32326
G1 X85.012 Y58.577 E17.3436
G1 X84.41 Y58.446 E17.3641
G1 X83.777 Y58.401 E17.3852
G1 X66.223 Y58.4 E17.96905
G1 X65.59 Y58.446 E17.99016
G1 X64.988 Y58.577 E18.01065
G1 X64.415 Y58.791 E18.03099
G1 X63.879 Y59.084 E18.05131
G1 X63.386 Y59.453 E18.07179
G1 X62.951 Y59.887 E18.09223
