; generated by PrusaSlicer 2.5.1+win64 on 2023-06-07 at 16:57:49 UTC


;
;

;
;
; 

; external perimeters extrusion width = 0.45mm
; perimeters extrusion width = 0.45mm
; infill extrusion width = 0.45mm
; solid infill extrusion width = 0.45mm
; top infill extrusion width = 0.40mm
; support material extrusion width = 0.35mm
; first layer extrusion width = 0.42mm

M73 P0 R395
M201 X2500 Y2500 Z400 E5000 ; sets maximum accelerations, mm/sec^2
M203 X180 Y180 Z12 E80 ; sets maximum feedrates, mm / sec
M204 P2000 R1250 T2500 ; sets acceleration (P, T) and retract acceleration (R), mm/sec^2
M205 X8.00 Y8.00 Z2.00 E10.00 ; sets the jerk limits, mm/sec
M205 S0 T0 ; sets the minimum extruding and travel feed rate, mm/sec
M107
;TYPE:Custom
M862.3 P "MINI" ; printer model check
G90 ; use absolute coordinates
M83 ; extruder relative mode
M104 S170 ; set extruder temp for bed leveling
M140 S60 ; set bed temp
M109 R170 ; wait for bed leveling temp
M190 S60 ; wait for bed temp
M204 T1250 ; set travel acceleration
G28 ; home all without mesh bed level
G29 ; mesh bed leveling 
M204 T2500 ; restore travel acceleration
M104 S215 ; set extruder temp
G92 E0
G1 Y-2 X179 F2400
G1 Z3 F720
M109 S215 ; wait for extruder temp

; intro line
M73 P0 R394
G1 X170 F1000
G1 Z0.2 F720
G1 X110 E8 F900
G1 X40 E10 F700
G92 E0

M221 S95 ; set flow
G21 ; set units to millimeters
G90 ; use absolute coordinates
M83 ; use relative distances for extrusion
M900 K0.2 ; Filament gcode LA 1.5
; ; Filament gcode LA 1.0
M107
;LAYER_CHANGE
;Z:0.2
;HEIGHT:0.2
;BEFORE_LAYER_CHANGE
G92 E0.0
;0.2


G1 E-3.2 F4200
G1 Z.2 F720
;AFTER_LAYER_CHANGE
;0.2
G1 Z.4
G1 X14.003 Y9.796 F9000
G1 Z.2 F720
G1 E3.2 F2400
M204 P600
;TYPE:Skirt/Brim
;WIDTH:0.42
G1 F1200
G1 X14.389 Y9.244 E.02113
G1 X15.323 Y8.361 E.04029
G1 X16.39 Y7.657 E.04009
G1 X17.181 Y7.288 E.02738
G1 X18.411 Y6.92 E.04026
G1 X19.898 Y6.762 E.04686
G1 X160.307 Y6.771 E4.40245
G1 X161.58 Y6.918 E.04017
G1 X162.811 Y7.285 E.04028
G1 X163.958 Y7.858 E.04021
G1 X164.676 Y8.36 E.02746
G1 X165.877 Y9.561 E.05327
G1 X166.583 Y10.631 E.04017
G1 X167.093 Y11.81 E.04029
G1 X167.37 Y12.891 E.03499
G1 X171.454 Y38.608 E.81644
G1 X171.454 Y141.392 E3.22273
G1 X167.371 Y167.105 E.81631
G1 X167.095 Y168.186 E.03498
G1 X166.585 Y169.365 E.04027
G1 X165.613 Y170.753 E.05313
G1 X164.682 Y171.635 E.04021
G1 X163.967 Y172.136 E.02738
G1 X162.818 Y172.713 E.04031
G1 X161.589 Y173.08 E.04023
G1 X160.102 Y173.238 E.04686
G1 X19.9 Y173.238 E4.39595
G1 X18.417 Y173.081 E.04677
G1 X17.186 Y172.715 E.04025
G1 X16.04 Y172.14 E.04021
G1 X15.005 Y171.372 E.0404
G1 X14.389 Y170.756 E.02733
G1 X13.624 Y169.727 E.04021
G1 X13.049 Y168.579 E.04025
G1 X12.681 Y167.35 E.04023
G1 X8.546 Y141.392 E.82415
G1 X8.546 Y38.608 E3.22273
G1 X12.629 Y12.895 E.81631
G1 X12.905 Y11.813 E.03501
G1 X13.414 Y10.638 E.04016
G1 X13.968 Y9.845 E.03033
M204 P1000
; printing object Exterior.STL id:0 copy 0
G1 E-2.24 F4200
;WIPE_START
G1 F7200
G1 X14.389 Y9.244 E-.40664
G1 X15.052 Y8.617 E-.50536
;WIPE_END
G1 E-.048 F4200
G1 Z.4 F720
G1 X14.42 Y42.699 F9000
G1 Z.2 F720
G1 E3.2 F2400
M204 P600
;TYPE:Support material
G1 F1200
G1 X14.701 Y42.98 E.01247
G1 X15.899 Y42.98 E.03755
G1 X16.18 Y42.699 E.01247
G1 X16.18 Y38.608 E.12827
G1 X19.117 Y38.608 E.09208
G1 X19.117 Y141.392 E3.22273
G1 X16.18 Y141.392 E.09208
G1 X16.18 Y137.301 E.12827
G1 X15.899 Y137.02 E.01247
G1 X14.701 Y137.02 E.03755
G1 X14.42 Y137.301 E.01247
G1 X14.42 Y141.392 E.12827
G1 X10.923 Y141.392 E.10965
G1 X10.923 Y38.608 E3.22273
G1 X14.42 Y38.608 E.10965
G1 X14.42 Y42.642 E.12649
M204 P1000
G1 X18.774 Y141.222 F9000
M204 P600
G1 F1200
G1 X18.774 Y38.947 E3.20677
G1 X18.355 Y38.947 E.01314
M73 P0 R393
G1 X18.355 Y141.053 E3.20145
G1 X17.936 Y141.053 E.01314
G1 X17.936 Y38.947 E3.20145
G1 X17.517 Y38.947 E.01314
G1 X17.517 Y141.053 E3.20145
G1 X17.098 Y141.053 E.01314
G1 X17.098 Y38.947 E3.20145
G1 X16.679 Y38.947 E.01314
G1 X16.679 Y141.053 E3.20145
G1 X16.519 Y141.053 E.00501
G1 X16.519 Y137.161 E.12204
G1 X16.26 Y136.901 E.0115
G1 X16.26 Y43.099 E2.94111
G1 X16.039 Y43.319 E.00978
G1 X15.841 Y43.319 E.00622
G1 X15.841 Y136.681 E2.92728
G1 X15.422 Y136.681 E.01314
G1 X15.422 Y43.319 E2.92728
G1 X15.003 Y43.319 E.01314
G1 X15.003 Y136.681 E2.92728
G1 X14.584 Y136.681 E.01314
G1 X14.584 Y43.319 E2.92728
G1 X14.561 Y43.319 E.00074
G1 X14.165 Y42.924 E.01753
G1 X14.165 Y137.076 E2.95207
G1 X14.081 Y137.161 E.00375
G1 X14.081 Y141.053 E.12204
G1 X13.746 Y141.053 E.01049
G1 X13.746 Y38.947 E3.20145
G1 X13.327 Y38.947 E.01314
M73 P0 R392
G1 X13.327 Y141.053 E3.20145
G1 X12.908 Y141.053 E.01314
G1 X12.908 Y38.947 E3.20145
G1 X12.489 Y38.947 E.01314
G1 X12.489 Y141.053 E3.20145
G1 X12.07 Y141.053 E.01314
G1 X12.07 Y38.947 E3.20145
G1 X11.651 Y38.947 E.01314
G1 X11.651 Y141.222 E3.20677
M204 P1000
G1 E-2.24 F4200
;WIPE_START
G1 F7200
G1 X11.651 Y139.577 E-.912
;WIPE_END
G1 E-.048 F4200
G1 Z.4 F720
G1 X163.82 Y42.699 F9000
G1 Z.2 F720
G1 E3.2 F2400
M204 P600
G1 F1200
G1 X164.101 Y42.98 E.01247
G1 X165.299 Y42.98 E.03755
G1 X165.58 Y42.699 E.01247
G1 X165.58 Y38.608 E.12827
G1 X169.077 Y38.608 E.10965
G1 X169.077 Y141.392 E3.22273
G1 X165.58 Y141.392 E.10965
G1 X165.58 Y137.301 E.12827
G1 X165.299 Y137.02 E.01247
G1 X164.101 Y137.02 E.03755
G1 X163.82 Y137.301 E.01247
G1 X163.82 Y141.392 E.12827
G1 X160.883 Y141.392 E.09208
G1 X160.883 Y38.608 E3.22273
G1 X163.82 Y38.608 E.09208
G1 X163.82 Y42.642 E.12649
M204 P1000
G1 X168.349 Y141.222 F9000
M204 P600
G1 F1200
G1 X168.349 Y38.947 E3.20677
G1 X167.93 Y38.947 E.01314
G1 X167.93 Y141.053 E3.20145
G1 X167.511 Y141.053 E.01314
G1 X167.511 Y38.947 E3.20145
G1 X167.092 Y38.947 E.01314
G1 X167.092 Y141.053 E3.20145
G1 X166.673 Y141.053 E.01314
M73 P0 R391
G1 X166.673 Y38.947 E3.20145
G1 X166.254 Y38.947 E.01314
G1 X166.254 Y141.053 E3.20145
G1 X165.919 Y141.053 E.01049
G1 X165.919 Y137.161 E.12204
G1 X165.835 Y137.076 E.00375
G1 X165.835 Y42.924 E2.95207
G1 X165.439 Y43.319 E.01753
G1 X165.416 Y43.319 E.00074
G1 X165.416 Y136.681 E2.92728
G1 X164.997 Y136.681 E.01314
G1 X164.997 Y43.319 E2.92728
G1 X164.578 Y43.319 E.01314
G1 X164.578 Y136.681 E2.92728
G1 X164.159 Y136.681 E.01314
G1 X164.159 Y43.319 E2.92728
G1 X163.961 Y43.319 E.00622
G1 X163.74 Y43.099 E.00978
G1 X163.74 Y136.901 E2.94111
G1 X163.481 Y137.161 E.0115
G1 X163.481 Y141.053 E.12204
G1 X163.321 Y141.053 E.00501
G1 X163.321 Y38.947 E3.20145
G1 X162.902 Y38.947 E.01314
G1 X162.902 Y141.053 E3.20145
G1 X162.483 Y141.053 E.01314
G1 X162.483 Y38.947 E3.20145
G1 X162.064 Y38.947 E.01314
M73 P1 R391
G1 X162.064 Y141.053 E3.20145
G1 X161.645 Y141.053 E.01314
M73 P1 R390
G1 X161.645 Y38.947 E3.20145
G1 X161.226 Y38.947 E.01314
G1 X161.226 Y141.222 E3.20677
M204 P1000
G1 E-2.24 F4200
;WIPE_START
G1 F7200
G1 X161.226 Y139.577 E-.912
;WIPE_END
G1 E-.048 F4200
G1 Z.4 F720
G1 X15.677 Y148.089 F9000
G1 Z.2 F720
G1 E3.2 F2400
M204 P600
;TYPE:External perimeter
;WIDTH:0.467166
G1 F1200
G1 X15.606 Y148.089 E.0025
;WIDTH:0.514332
G1 X15.536 Y148.089 E.00277
G1 X15.512 Y148.183 E.00381
;WIDTH:0.46721
G1 X15.488 Y148.277 E.00343
;WIDTH:0.420972
G1 X15.491 Y165.879 E.55331
;WIDTH:0.419693
G1 X15.561 Y166.643 E.02405
G1 X15.762 Y167.385 E.02408
G1 X16.09 Y168.08 E.02408
G1 X16.533 Y168.708 E.02408
G1 X17.078 Y169.25 E.02408
G1 X17.71 Y169.688 E.02408
G1 X18.407 Y170.01 E.02408
G1 X19.151 Y170.206 E.02408
;WIDTH:0.420972
G1 X19.917 Y170.272 E.02419
G1 X160.117 Y170.27 E4.40721
;WIDTH:0.419688
G1 X160.882 Y170.201 E.02405
G1 X161.623 Y169.999 E.02408
G1 X162.319 Y169.672 E.02408
G1 X162.947 Y169.228 E.02408
G1 X163.488 Y168.683 E.02408
G1 X163.927 Y168.052 E.02408
G1 X164.249 Y167.354 E.02408
G1 X164.445 Y166.611 E.02408
;WIDTH:0.420973
G1 X164.51 Y165.844 E.02419
G1 X164.511 Y148.277 E.55222
;WIDTH:0.467212
G1 X164.488 Y148.183 E.00343
;WIDTH:0.514335
G1 X164.464 Y148.089 E.00381
G1 X164.394 Y148.089 E.00277
;WIDTH:0.467168
G1 X164.323 Y148.089 E.0025
;WIDTH:0.42
G1 X161.877 Y148.089 E.07668
G1 X161.673 Y148.048 E.00652
G1 X161.673 Y147.752 E.00927
G1 X161.827 Y147.711 E.005
G1 X164.323 Y147.711 E.07825
;WIDTH:0.467168
G1 X164.394 Y147.711 E.0025
;WIDTH:0.514335
G1 X164.464 Y147.711 E.00277
G1 X164.488 Y147.617 E.00381
;WIDTH:0.467209
G1 X164.511 Y147.523 E.00343
;WIDTH:0.419998
G1 X164.511 Y138.077 E.29616
G1 X164.552 Y137.873 E.00652
G1 X164.848 Y137.873 E.00929
G1 X164.889 Y138.046 E.00555
;WIDTH:0.420083
G1 X164.889 Y147.523 E.29722
;WIDTH:0.467209
G1 X164.865 Y147.711 E.0067
;WIDTH:0.514335
G1 X164.842 Y147.9 E.00745
G1 X164.865 Y148.089 E.00745
;WIDTH:0.467212
G1 X164.889 Y148.277 E.0067
;WIDTH:0.420973
G1 X164.884 Y165.911 E.55434
;WIDTH:0.419693
G1 X164.803 Y166.741 E.0261
G1 X164.579 Y167.544 E.02613
G1 X164.219 Y168.296 E.02613
G1 X163.734 Y168.975 E.02613
G1 X163.138 Y169.558 E.02613
G1 X162.45 Y170.03 E.02613
G1 X161.69 Y170.374 E.02613
G1 X160.882 Y170.582 E.02613
;WIDTH:0.420972
G1 X160.091 Y170.65 E.02497
G1 X19.85 Y170.646 E4.40849
;WIDTH:0.419692
G1 X19.021 Y170.565 E.0261
G1 X18.217 Y170.341 E.02613
G1 X17.465 Y169.98 E.02613
G1 X16.787 Y169.495 E.02613
G1 X16.203 Y168.899 E.02613
G1 X15.732 Y168.211 E.02613
G1 X15.387 Y167.451 E.02613
G1 X15.18 Y166.644 E.02613
;WIDTH:0.420972
G1 X15.111 Y165.844 E.02523
G1 X15.111 Y148.277 E.55222
;WIDTH:0.46721
G1 X15.135 Y148.089 E.0067
;WIDTH:0.514332
G1 X15.158 Y147.9 E.00745
G1 X15.135 Y147.711 E.00745
;WIDTH:0.467207
G1 X15.111 Y147.523 E.0067
;WIDTH:0.420081
G1 X15.111 Y138.077 E.29623
G1 X15.152 Y137.873 E.00652
G1 X15.448 Y137.873 E.00929
G1 X15.489 Y138.077 E.00652
G1 X15.489 Y147.523 E.29623
;WIDTH:0.467207
G1 X15.512 Y147.617 E.00343
;WIDTH:0.514332
G1 X15.536 Y147.711 E.00381
G1 X15.606 Y147.711 E.00277
;WIDTH:0.467166
G1 X15.677 Y147.711 E.0025
;WIDTH:0.42
G1 X18.123 Y147.711 E.07668
G1 X18.327 Y147.752 E.00652
G1 X18.327 Y148.048 E.00927
G1 X18.173 Y148.089 E.005
G1 X15.737 Y148.089 E.07637
M204 P1000
G1 X15.641 Y148.027 F9000
G1 E-2.24 F4200
;WIPE_START
G1 F7200
G1 X15.606 Y148.089 E-.07245
G1 X15.536 Y148.089 E-.0392
G1 X15.512 Y148.183 E-.05385
G1 X15.488 Y148.277 E-.05385
G1 X15.489 Y149.527 E-.69265
;WIPE_END
G1 E-.048 F4200
G1 Z.4 F720
G1 X164.323 Y31.911 F9000
G1 Z.2 F720
G1 E3.2 F2400
M204 P600
;WIDTH:0.467167
G1 F1200
G1 X164.394 Y31.911 E.0025
;WIDTH:0.514334
G1 X164.464 Y31.911 E.00277
G1 X164.488 Y31.817 E.00381
;WIDTH:0.467211
G1 X164.512 Y31.723 E.00343
;WIDTH:0.420973
G1 X164.509 Y14.121 E.55331
;WIDTH:0.419688
G1 X164.439 Y13.357 E.02405
G1 X164.238 Y12.615 E.02408
G1 X163.91 Y11.92 E.02408
G1 X163.467 Y11.292 E.02408
G1 X162.922 Y10.75 E.02408
G1 X162.29 Y10.312 E.02408
G1 X161.593 Y9.99 E.02408
G1 X160.849 Y9.794 E.02408
;WIDTH:0.420974
G1 X160.083 Y9.728 E.02419
G1 X109.577 Y9.727 E1.58765
;WIDTH:0.420001
G1 X109.373 Y9.687 E.00652
G1 X109.373 Y9.39 E.00931
G1 X109.577 Y9.35 E.00652
;WIDTH:0.420974
G1 X160.15 Y9.354 E1.58977
;WIDTH:0.419689
G1 X160.979 Y9.435 E.0261
G1 X161.783 Y9.659 E.02613
G1 X162.535 Y10.02 E.02613
G1 X163.213 Y10.505 E.02613
G1 X163.797 Y11.101 E.02613
G1 X164.268 Y11.789 E.02613
G1 X164.613 Y12.549 E.02613
G1 X164.82 Y13.356 E.02613
;WIDTH:0.420973
G1 X164.889 Y14.156 E.02523
G1 X164.889 Y31.723 E.55222
;WIDTH:0.467211
G1 X164.865 Y31.911 E.0067
;WIDTH:0.514334
G1 X164.842 Y32.1 E.00745
G1 X164.865 Y32.289 E.00745
;WIDTH:0.467208
G1 X164.889 Y32.477 E.0067
;WIDTH:0.420082
G1 X164.889 Y41.923 E.29623
G1 X164.848 Y42.127 E.00652
G1 X164.552 Y42.127 E.00929
G1 X164.511 Y41.923 E.00652
G1 X164.511 Y32.477 E.29623
;WIDTH:0.467208
G1 X164.488 Y32.383 E.00343
;WIDTH:0.514334
G1 X164.464 Y32.289 E.00381
G1 X164.394 Y32.289 E.00277
;WIDTH:0.467167
G1 X164.323 Y32.289 E.0025
;WIDTH:0.42
G1 X161.877 Y32.289 E.07668
G1 X161.673 Y32.248 E.00652
G1 X161.673 Y31.952 E.00927
G1 X161.827 Y31.911 E.005
G1 X164.263 Y31.911 E.07637
M204 P1000
G1 X164.359 Y31.973 F9000
G1 E-2.24 F4200
;WIPE_START
G1 F7200
G1 X164.394 Y31.911 E-.07245
G1 X164.464 Y31.911 E-.0392
G1 X164.488 Y31.817 E-.05385
G1 X164.512 Y31.723 E-.05385
G1 X164.511 Y30.473 E-.69265
;WIPE_END
G1 E-.048 F4200
G1 Z.4 F720
G1 X15.677 Y31.911 F9000
G1 Z.2 F720
G1 E3.2 F2400
M204 P600
;WIDTH:0.420002
G1 F1200
G1 X18.123 Y31.911 E.07668
G1 X18.327 Y31.952 E.00652
G1 X18.327 Y32.248 E.00927
G1 X18.123 Y32.289 E.00652
G1 X15.677 Y32.289 E.07668
;WIDTH:0.467168
G1 X15.606 Y32.289 E.0025
;WIDTH:0.514333
G1 X15.536 Y32.289 E.00277
G1 X15.512 Y32.383 E.00381
;WIDTH:0.467207
G1 X15.489 Y32.477 E.00343
;WIDTH:0.420081
G1 X15.489 Y41.923 E.29623
G1 X15.448 Y42.127 E.00652
G1 X15.152 Y42.127 E.00929
G1 X15.111 Y41.923 E.00652
G1 X15.111 Y32.477 E.29623
;WIDTH:0.467207
G1 X15.135 Y32.289 E.0067
;WIDTH:0.514333
G1 X15.158 Y32.1 E.00745
G1 X15.135 Y31.911 E.00745
;WIDTH:0.46721
G1 X15.111 Y31.723 E.0067
;WIDTH:0.420972
G1 X15.116 Y14.089 E.55434
;WIDTH:0.419691
G1 X15.197 Y13.259 E.0261
G1 X15.421 Y12.456 E.02613
G1 X15.781 Y11.704 E.02613
G1 X16.266 Y11.025 E.02613
G1 X16.862 Y10.442 E.02613
G1 X17.55 Y9.97 E.02613
G1 X18.31 Y9.626 E.02613
G1 X19.118 Y9.418 E.02613
;WIDTH:0.420974
G1 X19.917 Y9.35 E.02523
G1 X70.423 Y9.35 E1.58765
;WIDTH:0.420002
G1 X70.627 Y9.39 E.00652
G1 X70.612 Y9.517 E.00402
G1 X70.627 Y9.687 E.00534
G1 X70.423 Y9.727 E.00652
;WIDTH:0.420974
G1 X19.883 Y9.73 E1.58874
;WIDTH:0.419691
G1 X19.118 Y9.799 E.02405
G1 X18.377 Y10.001 E.02408
G1 X17.681 Y10.328 E.02408
G1 X17.053 Y10.772 E.02408
G1 X16.512 Y11.317 E.02408
G1 X16.073 Y11.948 E.02408
G1 X15.751 Y12.646 E.02408
G1 X15.555 Y13.389 E.02408
;WIDTH:0.420972
G1 X15.49 Y14.156 E.02419
G1 X15.488 Y31.723 E.55222
;WIDTH:0.46721
G1 X15.512 Y31.817 E.00343
;WIDTH:0.514333
G1 X15.536 Y31.911 E.00381
G1 X15.606 Y31.911 E.00277
;WIDTH:0.467168
G1 X15.617 Y31.911 E.00038
M204 P1000
; stop printing object Exterior.STL id:0 copy 0
M106 S84.15
;LAYER_CHANGE
;Z:0.4
;HEIGHT:0.2
;BEFORE_LAYER_CHANGE
G92 E0.0
;0.4


G1 E-2.24 F4200
;WIPE_START
G1 F7200
G1 X17.263 Y31.911 E-.912
;WIPE_END
G1 E-.048 F4200
G1 Z.4 F720
;AFTER_LAYER_CHANGE
;0.4
M104 S210 ; set temperature
G1 Z.6
G1 X9.797 Y30.726 F9000
G1 Z.4 F720
G1 E3.2 F2400
;TYPE:Skirt/Brim
;WIDTH:0.42
G1 X12.629 Y12.895 E.56609
G1 X12.905 Y11.813 E.03501
G1 X13.414 Y10.638 E.04016
G1 X14.389 Y9.244 E.05334
G1 X15.323 Y8.361 E.04029
G1 X16.39 Y7.657 E.04009
G1 X17.181 Y7.288 E.02738
G1 X18.411 Y6.92 E.04026
G1 X19.898 Y6.762 E.04686
G1 X160.307 Y6.771 E4.40245
G1 X161.58 Y6.918 E.04017
M73 P1 R389
G1 X162.811 Y7.285 E.04028
G1 X163.958 Y7.858 E.04021
G1 X164.676 Y8.36 E.02746
G1 X165.877 Y9.561 E.05327
G1 X166.583 Y10.631 E.04017
G1 X167.093 Y11.81 E.04029
G1 X167.37 Y12.891 E.03499
G1 X171.454 Y38.608 E.81644
G1 X171.454 Y141.392 E3.22273
G1 X167.371 Y167.105 E.81631
G1 X167.095 Y168.186 E.03498
G1 X166.585 Y169.365 E.04027
G1 X165.613 Y170.753 E.05313
G1 X164.682 Y171.635 E.04021
G1 X163.967 Y172.136 E.02738
G1 X162.818 Y172.713 E.04031
G1 X161.589 Y173.08 E.04023
G1 X160.102 Y173.238 E.04686
G1 X19.9 Y173.238 E4.39595
G1 X18.417 Y173.081 E.04677
G1 X17.186 Y172.715 E.04025
G1 X16.04 Y172.14 E.04021
G1 X15.005 Y171.372 E.0404
G1 X14.389 Y170.756 E.02733
G1 X13.624 Y169.727 E.04021
G1 X13.049 Y168.579 E.04025
G1 X12.681 Y167.35 E.04023
G1 X8.546 Y141.392 E.82415
G1 X8.546 Y38.608 E3.22273
G1 X9.788 Y30.785 E.24834
; printing object Exterior.STL id:0 copy 0
G1 E-2.24 F4200
;WIPE_START
G1 F7200
G1 X10.046 Y29.16 E-.912
;WIPE_END
G1 E-.048 F4200
G1 Z.6 F720
G1 X16.173 Y43.705 F9000
G1 Z.4 F720
G1 E3.2 F2400
;TYPE:Support material
;WIDTH:0.35
G1 X16.173 Y41.551 E.05499
G1 X16.124 Y41.551 E.00128
G1 X16.124 Y42.675 E.0287
G1 X15.875 Y42.924 E.00896
G1 X14.725 Y42.924 E.02939
G1 X14.476 Y42.675 E.00896
G1 X14.476 Y41.551 E.0287
G1 X13.866 Y41.551 E.01558
G1 X13.866 Y43.858 E.05891
G1 X16.173 Y43.858 E.05891
G1 X16.173 Y46.165 E.05891
G1 X13.866 Y46.165 E.05891
G1 X13.866 Y48.473 E.05891
G1 X16.173 Y48.473 E.05891
G1 X16.173 Y50.78 E.05891
G1 X13.866 Y50.78 E.05891
G1 X13.866 Y53.087 E.05891
G1 X16.173 Y53.087 E.05891
G1 X16.173 Y55.394 E.05891
G1 X13.866 Y55.394 E.05891
G1 X13.866 Y57.701 E.05891
G1 X16.173 Y57.701 E.05891
G1 X16.173 Y60.008 E.05891
