; generated by PrusaSlicer 2.5.1+win64 on 2023-05-22 at 22:49:24 UTC


;
;

;
;
; 

; external perimeters extrusion width = 0.45mm
; perimeters extrusion width = 0.45mm
; infill extrusion width = 0.45mm
; solid infill extrusion width = 0.45mm
; top infill extrusion width = 0.40mm
; first layer extrusion width = 0.42mm

M73 P0 R57
M201 X2500 Y2500 Z400 E5000 ; sets maximum accelerations, mm/sec^2
M203 X180 Y180 Z12 E80 ; sets maximum feedrates, mm / sec
M204 P2000 R1250 T2500 ; sets acceleration (P, T) and retract acceleration (R), mm/sec^2
M205 X8.00 Y8.00 Z2.00 E10.00 ; sets the jerk limits, mm/sec
M205 S0 T0 ; sets the minimum extruding and travel feed rate, mm/sec
M107
;TYPE:Custom
M862.3 P "MINI" ; printer model check
G90 ; use absolute coordinates
M83 ; extruder relative mode
M104 S170 ; set extruder temp for bed leveling
M140 S55 ; set bed temp
M109 R170 ; wait for bed leveling temp
M190 S55 ; wait for bed temp
M204 T1250 ; set travel acceleration
G28 ; home all without mesh bed level
G29 ; mesh bed leveling 
M204 T2500 ; restore travel acceleration
M104 S220 ; set extruder temp
G92 E0
G1 Y-2 X179 F2400
G1 Z3 F720
M109 S220 ; wait for extruder temp

; intro line
G1 X170 F1000
G1 Z0.2 F720
G1 X110 E8 F900
G1 X40 E10 F700
G92 E0

M221 S95 ; set flow
G21 ; set units to millimeters
G90 ; use absolute coordinates
M83 ; use relative distances for extrusion
M900 K0.2 ; Filament gcode LA 1.5
; ; Filament gcode LA 1.0
M107
;LAYER_CHANGE
;Z:0.2
;HEIGHT:0.2
;BEFORE_LAYER_CHANGE
G92 E0.0
;0.2


G1 E-3.2 F4200
G1 Z.2 F720
;AFTER_LAYER_CHANGE
;0.2
G1 Z.4
G1 X62.207 Y79.419 F9000
G1 Z.2 F720
G1 E3.2 F2400
M204 P600
;TYPE:Skirt/Brim
;WIDTH:0.42
G1 F1200
G1 X63.821 Y78.724 E.05512
G1 X72.872 Y78.523 E.28385
G1 X116.123 Y78.723 E1.35613
G1 X117.793 Y79.419 E.05673
G1 X120.781 Y82.407 E.13247
G1 X121.477 Y84.088 E.05704
G1 X121.477 Y95.912 E.37076
G1 X120.781 Y97.593 E.05704
G1 X117.793 Y100.581 E.13247
G1 X116.123 Y101.277 E.05673
G1 X71.177 Y101.476 E1.40927
G1 X63.821 Y101.276 E.23072
G1 X62.207 Y100.581 E.05512
G1 X59.219 Y97.593 E.13247
G1 X58.523 Y95.912 E.05704
G1 X58.523 Y84.088 E.37076
G1 X59.219 Y82.407 E.05704
G1 X62.164 Y79.462 E.13059
M204 P1000
G1 E-2.24 F4200
;WIPE_START
G1 F7200
G1 X63.668 Y78.792 E-.912
;WIPE_END
G1 E-.048 F4200
G1 Z.4 F720
G1 X63.575 Y82.016 F9000
G1 Z.2 F720
G1 E3.2 F2400
M204 P600
G1 F1200
G1 X65.182 Y81.446 E.05348
G1 X69.148 Y81.383 E.12437
G1 X69.609 Y81.345 E.01449
G1 X70.57 Y81.199 E.03048
G1 X73.002 Y81.191 E.07625
G1 X73.805 Y81.244 E.02525
G1 X74.639 Y81.373 E.02646
G1 X75.326 Y81.386 E.02155
G1 X114.3 Y81.387 E1.22198
G1 X115.295 Y81.548 E.03163
M73 P0 R56
G1 X116.517 Y82.08 E.04179
G1 X117.537 Y82.924 E.0415
G1 X118.304 Y84.019 E.0419
G1 X118.742 Y85.296 E.04233
G1 X118.814 Y94.09 E.27575
G1 X118.664 Y95.053 E.03057
G1 X118.07 Y96.395 E.04599
G1 X117.061 Y97.532 E.04766
G1 X115.775 Y98.285 E.04672
G1 X114.365 Y98.613 E.0454
G1 X74.899 Y98.616 E1.23743
G1 X74.426 Y98.649 E.01486
G1 X73.698 Y98.768 E.02313
G1 X72.951 Y98.811 E.02348
G1 X70.568 Y98.801 E.07472
G1 X69.609 Y98.655 E.03042
G1 X69.151 Y98.617 E.0144
G1 X65.383 Y98.584 E.11814
G1 X64.339 Y98.331 E.03369
G1 X63.411 Y97.879 E.03238
G1 X62.329 Y96.914 E.04546
G1 X61.811 Y96.219 E.02718
G1 X61.187 Y94.247 E.06485
G1 X61.187 Y85.782 E.2654
G1 X61.501 Y84.47 E.04231
G1 X61.959 Y83.55 E.03222
G1 X62.895 Y82.52 E.04363
G1 X63.526 Y82.051 E.02465
M204 P1000
G1 X63.75 Y82.355 F9000
M204 P600
G1 F1200
G1 X65.277 Y81.812 E.05082
G1 X69.166 Y81.76 E.12195
G1 X69.654 Y81.72 E.01533
G1 X70.586 Y81.576 E.02957
G1 X72.984 Y81.568 E.07519
G1 X73.756 Y81.618 E.02426
G1 X74.607 Y81.75 E.02699
G1 X75.323 Y81.763 E.02246
G1 X114.285 Y81.764 E1.22164
G1 X115.169 Y81.904 E.02806
G1 X116.298 Y82.388 E.03852
G1 X117.277 Y83.198 E.03981
M73 P1 R56
G1 X117.979 Y84.211 E.03864
G1 X118.375 Y85.387 E.03892
G1 X118.437 Y94.078 E.27251
G1 X118.308 Y94.926 E.02689
G1 X117.767 Y96.169 E.0425
G1 X116.842 Y97.223 E.04397
G1 X115.66 Y97.925 E.04311
G1 X114.343 Y98.236 E.04243
G1 X74.886 Y98.239 E1.23713
G1 X74.382 Y98.274 E.01583
G1 X73.667 Y98.392 E.02275
G1 X72.935 Y98.434 E.02298
G1 X70.584 Y98.424 E.07372
G1 X69.654 Y98.28 E.02951
G1 X69.168 Y98.24 E.01528
G1 X65.449 Y98.212 E.11659
G1 X64.486 Y97.983 E.03107
G1 X63.601 Y97.551 E.03087
G1 X62.596 Y96.647 E.04239
G1 X62.133 Y96.02 E.02443
G1 X61.564 Y94.218 E.05926
G1 X61.564 Y85.805 E.26378
G1 X61.862 Y84.581 E.03951
G1 X62.284 Y83.744 E.02939
G1 X63.16 Y82.789 E.04063
G1 X63.702 Y82.39 E.02108
M204 P1000
G1 X63.923 Y82.694 F9000
M204 P600
G1 F1200
G1 X63.973 Y82.658 E.00194
G1 X65.37 Y82.179 E.04631
G1 X69.184 Y82.137 E.11957
G1 X69.699 Y82.095 E.01621
G1 X70.602 Y81.953 E.02866
G1 X72.966 Y81.944 E.07414
G1 X73.707 Y81.992 E.02327
G1 X74.574 Y82.126 E.02752
G1 X75.319 Y82.141 E.02337
G1 X114.271 Y82.141 E1.22131
G1 X115.045 Y82.261 E.02455
G1 X116.081 Y82.698 E.03527
G1 X116.984 Y83.436 E.03655
G1 X117.63 Y84.357 E.03528
G1 X118.008 Y85.479 E.0371
G1 X118.059 Y94.066 E.26927
G1 X117.951 Y94.801 E.02329
G1 X117.462 Y95.945 E.03902
G1 X116.621 Y96.917 E.04027
G1 X115.543 Y97.565 E.03947
G1 X114.32 Y97.859 E.03943
G1 X74.873 Y97.862 E1.23683
G1 X74.338 Y97.899 E.01682
G1 X73.635 Y98.016 E.02236
G1 X72.919 Y98.057 E.02247
G1 X70.6 Y98.047 E.07272
G1 X69.699 Y97.905 E.02861
G1 X69.185 Y97.863 E.01617
G1 X65.514 Y97.84 E.11509
G1 X64.631 Y97.635 E.02842
G1 X63.79 Y97.224 E.02934
G1 X62.864 Y96.381 E.03927
G1 X62.456 Y95.823 E.0217
G1 X61.941 Y94.189 E.05371
G1 X61.941 Y85.829 E.26214
G1 X62.223 Y84.694 E.03667
G1 X62.607 Y83.939 E.02656
G1 X63.423 Y83.059 E.03762
G1 X63.875 Y82.73 E.01753
M204 P1000
G1 X64.095 Y83.035 F9000
M204 P600
G1 F1200
G1 X64.17 Y82.981 E.0029
G1 X65.462 Y82.546 E.04272
G1 X69.201 Y82.514 E.11724
G1 X69.744 Y82.469 E.01711
G1 X70.618 Y82.33 E.02774
G1 X72.949 Y82.321 E.07309
G1 X73.658 Y82.366 E.02227
G1 X74.541 Y82.503 E.02804
G1 X75.315 Y82.518 E.02428
G1 X114.257 Y82.518 E1.22099
G1 X114.92 Y82.617 E.02102
G1 X115.909 Y83.034 E.03363
G1 X116.722 Y83.709 E.03314
G1 X117.304 Y84.549 E.03203
G1 X117.641 Y85.568 E.03366
G1 X117.682 Y94.055 E.26611
G1 X117.594 Y94.679 E.01976
G1 X117.155 Y95.724 E.03554
G1 X116.398 Y96.611 E.03657
G1 X115.424 Y97.206 E.0358
G1 X114.297 Y97.482 E.03637
G1 X74.86 Y97.485 E1.23651
G1 X74.294 Y97.524 E.01781
G1 X73.603 Y97.64 E.02197
G1 X72.904 Y97.68 E.02196
G1 X70.616 Y97.67 E.07172
G1 X69.744 Y97.531 E.02769
G1 X69.201 Y97.486 E.01709
G1 X65.579 Y97.468 E.11357
G1 X64.739 Y97.272 E.02705
G1 X63.982 Y96.899 E.02644
G1 X63.134 Y96.118 E.03616
G1 X62.779 Y95.627 E.01899
G1 X62.318 Y94.16 E.0482
G1 X62.318 Y85.852 E.26049
G1 X62.583 Y84.808 E.03378
G1 X62.93 Y84.136 E.02372
G1 X63.685 Y83.331 E.03461
G1 X64.047 Y83.07 E.01398
M204 P1000
G1 X64.265 Y83.376 F9000
M204 P600
G1 F1200
G1 X64.365 Y83.305 E.00385
G1 X65.551 Y82.913 E.03915
G1 X69.217 Y82.891 E.11495
G1 X69.79 Y82.844 E.01804
G1 X70.634 Y82.707 E.02681
G1 X72.932 Y82.698 E.07204
G1 X73.608 Y82.74 E.02126
G1 X74.509 Y82.879 E.02856
G1 X75.312 Y82.895 E.02519
G1 X114.244 Y82.895 E1.2207
G1 X114.799 Y82.975 E.01758
G1 X115.69 Y83.343 E.03023
G1 X116.461 Y83.982 E.03138
G1 X116.977 Y84.738 E.02869
G1 X117.273 Y85.655 E.03023
G1 X117.305 Y94.044 E.26302
G1 X117.236 Y94.559 E.0163
G1 X116.847 Y95.505 E.03207
G1 X116.175 Y96.306 E.03277
G1 X115.253 Y96.869 E.03389
G1 X114.275 Y97.105 E.03153
G1 X74.847 Y97.108 E1.23623
G1 X74.249 Y97.149 E.01881
G1 X73.571 Y97.265 E.02157
G1 X72.888 Y97.304 E.02144
G1 X70.633 Y97.293 E.0707
G1 X69.79 Y97.156 E.02677
G1 X69.217 Y97.109 E.01804
G1 X65.641 Y97.096 E.11211
G1 X64.885 Y96.924 E.02432
G1 X64.175 Y96.573 E.02484
G1 X63.406 Y95.856 E.03297
G1 X63.104 Y95.432 E.01631
G1 X62.695 Y94.132 E.04275
G1 X62.695 Y85.877 E.25883
G1 X62.942 Y84.925 E.03084
G1 X63.251 Y84.335 E.02087
G1 X63.945 Y83.605 E.0316
G1 X64.217 Y83.411 E.01045
M204 P1000
G1 X64.433 Y83.718 F9000
M204 P600
G1 F1200
G1 X64.558 Y83.63 E.0048
G1 X65.638 Y83.281 E.03558
G1 X69.233 Y83.268 E.11271
G1 X69.837 Y83.218 E.019
G1 X70.651 Y83.084 E.02588
G1 X72.915 Y83.074 E.07099
G1 X73.559 Y83.114 E.02024
G1 X74.476 Y83.256 E.02908
G1 X75.308 Y83.272 E.0261
G1 X114.232 Y83.272 E1.22043
G1 X114.681 Y83.334 E.01422
G1 X115.473 Y83.653 E.02676
G1 X116.199 Y84.255 E.02956
G1 X116.648 Y84.924 E.02528
G1 X116.904 Y85.74 E.02682
G1 X116.928 Y94.031 E.25996
G1 X116.866 Y94.483 E.01428
G1 X116.511 Y95.332 E.02885
G1 X115.909 Y96.037 E.02906
G1 X115.085 Y96.53 E.03013
G1 X114.253 Y96.728 E.0268
G1 X74.835 Y96.731 E1.23595
G1 X74.204 Y96.774 E.01982
G1 X73.538 Y96.889 E.02117
G1 X72.872 Y96.927 E.02092
G1 X70.65 Y96.916 E.06967
G1 X69.837 Y96.782 E.02584
G1 X69.233 Y96.732 E.01901
G1 X65.704 Y96.724 E.11063
G1 X64.991 Y96.562 E.02292
G1 X64.37 Y96.25 E.02181
G1 X63.68 Y95.596 E.0298
G1 X63.429 Y95.24 E.01366
G1 X63.072 Y94.103 E.03736
G1 X63.072 Y85.902 E.25714
G1 X63.3 Y85.044 E.02785
G1 X63.571 Y84.537 E.01801
G1 X64.204 Y83.88 E.0286
G1 X64.384 Y83.753 E.00693
M204 P1000
G1 X64.598 Y84.061 F9000
M204 P600
G1 F1200
G1 X64.749 Y83.956 E.00575
G1 X65.723 Y83.649 E.03203
G1 X69.237 Y83.645 E.11017
G1 X69.578 Y83.631 E.01069
G1 X69.896 Y83.591 E.01006
G1 X70.669 Y83.461 E.02455
G1 X72.899 Y83.451 E.06994
G1 X73.511 Y83.488 E.01921
G1 X74.443 Y83.632 E.02959
G1 X75.305 Y83.649 E.02701
G1 X114.218 Y83.649 E1.22011
G1 X114.604 Y83.704 E.01222
G1 X115.301 Y83.99 E.02362
G1 X115.933 Y84.524 E.02595
G1 X116.318 Y85.107 E.0219
G1 X116.536 Y85.823 E.02345
G1 X116.551 Y94.018 E.25696
G1 X116.496 Y94.404 E.01222
G1 X116.176 Y95.155 E.0256
G1 X115.646 Y95.765 E.02533
G1 X114.92 Y96.19 E.0264
G1 X114.232 Y96.351 E.02215
G1 X74.822 Y96.354 E1.23569
G1 X74.158 Y96.399 E.02085
M73 P2 R56
G1 X73.506 Y96.513 E.02076
G1 X72.857 Y96.55 E.02039
G1 X70.668 Y96.539 E.06863
G1 X69.896 Y96.409 E.02453
G1 X69.578 Y96.369 E.01006
G1 X69.237 Y96.355 E.01069
G1 X65.765 Y96.351 E.10888
G1 X65.139 Y96.214 E.02008
G1 X64.565 Y95.926 E.02013
G1 X63.956 Y95.338 E.02653
G1 X63.755 Y95.049 E.01105
G1 X63.449 Y94.074 E.03203
G1 X63.449 Y85.928 E.25542
G1 X63.658 Y85.166 E.02478
G1 X63.888 Y84.741 E.01515
G1 X64.46 Y84.157 E.02561
G1 X64.549 Y84.095 E.00342
M204 P1000
G1 X64.76 Y84.405 F9000
M204 P600
G1 F1200
G1 X64.938 Y84.284 E.00674
G1 X65.753 Y84.026 E.02679
G1 X69.245 Y84.022 E.10951
G1 X69.609 Y84.007 E.01143
G1 X69.952 Y83.964 E.01083
G1 X70.686 Y83.838 E.02335
G1 X72.883 Y83.828 E.06887
G1 X73.475 Y83.863 E.01862
G1 X74.101 Y83.974 E.01991
G1 X74.423 Y84.009 E.01016
G1 X75.301 Y84.026 E.02752
G1 X114.204 Y84.026 E1.21978
G1 X114.525 Y84.073 E.01017
G1 X115.127 Y84.325 E.02046
G1 X115.665 Y84.79 E.02231
G1 X115.985 Y85.287 E.01853
G1 X116.166 Y85.902 E.02011
G1 X116.174 Y94.004 E.25402
G1 X116.127 Y94.324 E.01012
G1 X115.843 Y94.976 E.02231
G1 X115.387 Y95.49 E.02156
G1 X114.759 Y95.849 E.02268
G1 X114.211 Y95.974 E.0176
G1 X74.818 Y95.977 E1.23514
G1 X74.438 Y95.989 E.01194
G1 X74.101 Y96.026 E.01063
G1 X73.473 Y96.137 E.01999
G1 X72.841 Y96.173 E.01985
G1 X70.685 Y96.162 E.06758
G1 X69.952 Y96.036 E.02333
G1 X69.609 Y95.993 E.01083
G1 X69.245 Y95.978 E.01143
G1 X65.786 Y95.974 E.10845
G1 X65.247 Y95.852 E.01735
G1 X64.764 Y95.604 E.017
G1 X64.235 Y95.084 E.02328
G1 X64.083 Y94.86 E.00847
G1 X63.826 Y94.045 E.02679
G1 X63.826 Y85.955 E.25368
G1 X64.014 Y85.291 E.02163
G1 X64.204 Y84.949 E.01228
G1 X64.711 Y84.439 E.02254
M204 P1000
G1 X64.964 Y84.719 F9000
M204 P600
G1 F1200
G1 X65.124 Y84.612 E.00605
G1 X65.782 Y84.403 E.02164
G1 X69.254 Y84.4 E.10884
G1 X69.641 Y84.383 E.01216
G1 X70.009 Y84.337 E.01162
G1 X70.704 Y84.215 E.02214
G1 X72.866 Y84.205 E.06779
G1 X73.442 Y84.239 E.01808
G1 X74.047 Y84.347 E.01927
G1 X74.399 Y84.386 E.0111
G1 X75.297 Y84.403 E.02817
G1 X114.189 Y84.403 E1.21943
G1 X114.443 Y84.442 E.00805
G1 X114.949 Y84.659 E.01726
G1 X115.395 Y85.054 E.01871
G1 X115.631 Y85.42 E.01363
G1 X115.797 Y85.983 E.01841
G1 X115.797 Y93.989 E.25103
G1 X115.758 Y94.243 E.00805
G1 X115.541 Y94.749 E.01726
G1 X115.127 Y95.214 E.01954
G1 X114.601 Y95.505 E.01883
G1 X114.191 Y95.597 E.01318
G1 X74.812 Y95.6 E1.2347
G1 X74.411 Y95.613 E.01258
G1 X74.047 Y95.653 E.01148
G1 X73.44 Y95.761 E.01933
G1 X72.825 Y95.796 E.01931
G1 X70.704 Y95.785 E.06652
G1 X70.009 Y95.663 E.02212
G1 X69.641 Y95.617 E.01162
G1 X69.254 Y95.6 E.01216
G1 X65.807 Y95.597 E.10806
G1 X65.397 Y95.505 E.01317
G1 X64.964 Y95.283 E.01527
G1 X64.517 Y94.833 E.01989
G1 X64.412 Y94.675 E.00595
G1 X64.203 Y94.016 E.02166
G1 X64.203 Y85.983 E.25188
G1 X64.369 Y85.42 E.01838
G1 X64.518 Y85.16 E.00942
G1 X64.921 Y84.761 E.01777
M204 P1000
G1 X65.183 Y85.032 F9000
M204 P600
G1 F1200
G1 X65.307 Y84.943 E.00479
G1 X65.812 Y84.78 E.01664
G1 X69.262 Y84.777 E.10816
G1 X69.673 Y84.759 E.0129
G1 X70.066 Y84.71 E.01243
G1 X70.723 Y84.592 E.02092
G1 X72.85 Y84.582 E.0667
G1 X73.408 Y84.615 E.01753
G1 X73.993 Y84.72 E.01863
G1 X74.375 Y84.762 E.01205
G1 X75.294 Y84.78 E.02882
G1 X114.173 Y84.78 E1.21905
G1 X114.357 Y84.81 E.00584
M73 P2 R55
G1 X114.766 Y84.99 E.01402
G1 X115.123 Y85.316 E.01513
G1 X115.279 Y85.557 E.00902
G1 X115.42 Y86.012 E.01495
G1 X115.42 Y93.973 E.24961
G1 X115.39 Y94.157 E.00584
G1 X115.21 Y94.566 E.01402
G1 X114.873 Y94.934 E.01564
G1 X114.449 Y95.159 E.01504
G1 X114.171 Y95.22 E.00891
G1 X74.806 Y95.222 E1.23428
G1 X74.384 Y95.237 E.01323
G1 X73.993 Y95.28 E.01234
G1 X73.407 Y95.385 E.01866
G1 X72.81 Y95.42 E.01876
G1 X70.722 Y95.408 E.06545
G1 X70.066 Y95.29 E.02091
G1 X69.673 Y95.241 E.01243
G1 X69.262 Y95.223 E.0129
G1 X65.827 Y95.22 E.10768
G1 X65.547 Y95.158 E.009
G1 X65.165 Y94.962 E.01347
G1 X64.803 Y94.587 E.01635
G1 X64.743 Y94.493 E.00349
G1 X64.58 Y93.987 E.01667
G1 X64.58 Y86.012 E.25003
G1 X64.721 Y85.555 E.015
G1 X64.828 Y85.375 E.00656
G1 X65.14 Y85.074 E.0136
M204 P1000
G1 X65.398 Y85.346 F9000
M204 P600
G1 F1200
G1 X65.482 Y85.277 E.00344
G1 X65.843 Y85.157 E.01192
G1 X69.27 Y85.154 E.10744
G1 X69.704 Y85.135 E.01363
G1 X70.124 Y85.082 E.01327
G1 X70.742 Y84.969 E.01969
G1 X72.834 Y84.958 E.0656
G1 X73.374 Y84.99 E.01697
G1 X73.938 Y85.094 E.01797
G1 X74.35 Y85.139 E.01301
G1 X75.29 Y85.157 E.02946
G1 X114.156 Y85.157 E1.21861
G1 X114.267 Y85.177 E.00352
G1 X114.579 Y85.319 E.01077
G1 X114.847 Y85.573 E.01156
G1 X114.93 Y85.7 E.00476
G1 X115.043 Y86.044 E.01136
G1 X115.043 Y93.956 E.24807
G1 X115.023 Y94.067 E.00352
G1 X114.881 Y94.379 E.01076
G1 X114.625 Y94.649 E.01167
G1 X114.304 Y94.811 E.01128
G1 X114.153 Y94.843 E.00484
G1 X74.799 Y94.845 E1.23389
G1 X74.357 Y94.86 E.01388
G1 X73.938 Y94.906 E.01322
G1 X73.374 Y95.01 E.01799
G1 X72.794 Y95.043 E.0182
G1 X70.742 Y95.031 E.06435
G1 X70.124 Y94.918 E.01968
G1 X69.704 Y94.865 E.01327
G1 X69.27 Y94.846 E.01363
G1 X65.847 Y94.843 E.10734
G1 X65.696 Y94.811 E.00482
G1 X65.368 Y94.643 E.01156
G1 X65.076 Y94.317 E.0137
G1 X64.957 Y93.956 E.01193
G1 X64.957 Y86.044 E.24807
G1 X65.071 Y85.698 E.01143
G1 X65.134 Y85.597 E.00372
G1 X65.354 Y85.388 E.00954
M204 P1000
G1 X65.61 Y85.663 F9000
M204 P600
G1 F1200
G1 X65.666 Y85.611 E.00241
G1 X65.879 Y85.534 E.00708
G1 X69.278 Y85.531 E.10659
G1 X69.736 Y85.511 E.01437
G1 X70.183 Y85.455 E.01414
G1 X70.761 Y85.346 E.01844
G1 X72.817 Y85.335 E.06447
G1 X73.34 Y85.366 E.01641
G1 X73.883 Y85.467 E.01731
G1 X74.326 Y85.516 E.01399
G1 X75.286 Y85.534 E.03011
G1 X114.135 Y85.534 E1.21808
G1 X114.385 Y85.644 E.00856
G1 X114.566 Y85.825 E.00802
G1 X114.666 Y86.079 E.00856
G1 X114.666 Y93.935 E.24631
G1 X114.556 Y94.185 E.00856
G1 X114.385 Y94.356 E.00758
G1 X114.135 Y94.466 E.00856
G1 X74.793 Y94.468 E1.23354
G1 X74.33 Y94.484 E.01452
G1 X73.883 Y94.533 E.01411
G1 X73.34 Y94.634 E.01732
G1 X72.79 Y94.666 E.01726
G1 X70.761 Y94.654 E.06362
G1 X70.183 Y94.545 E.01844
G1 X69.736 Y94.489 E.01414
G1 X69.278 Y94.469 E.01437
G1 X65.865 Y94.466 E.10703
G1 X65.618 Y94.358 E.00844
G1 X65.411 Y94.134 E.00957
G1 X65.334 Y93.921 E.00709
G1 X65.334 Y86.079 E.24587
G1 X65.416 Y85.852 E.00757
G1 X65.566 Y85.704 E.0066
M204 P1000
G1 X65.827 Y85.965 F9000
M204 P600
G1 F1200
G1 X65.921 Y85.912 E.0034
G1 X69.286 Y85.908 E.10552
G1 X69.768 Y85.887 E.01511
